!!!!SEGMENT: pl-cz--iii-106--001_dankowski-adalbert--missa-e-kyrie.krn
!!!cenid: 18xx:752
!!!COM: Dankowski, Adalbert
!!!COM-rismid: pe30000793
!!!CDT: ~1760-~1836
!!!CNT: Polish
!!!OPR: Missa E
!!!OTL: Kyrie
!!!OMV: 001
!!!PDT:
!!!AGN: Sacred; Mass
!!!SMS-siglum: PL-CZ
!!!SMS-shelfmark: III-106
!!!SMS-shelfwork: 001-001 M
!!!SMS-variant:
!!!SMS-altvar:
!!!NIFC-rismid: 300000111
!!!system-decoration: [(s1,s2)][(s3,s4,s5,s6)][(s7,s8)]s9
!!!key:
**kern	**dynam	**kern	**dynam	**kern	**dynam	**kern	**text	**kern	**text	**kern	**text	**kern	**text	**kern	**kern
*part9	*part9	*part8	*part8	*part7	*part7	*part6	*part6	*part5	*part5	*part4	*part4	*part3	*part3	*part2	*part1
*staff9	*	*staff8	*	*staff7	*	*staff6	*staff6	*staff5	*staff5	*staff4	*staff4	*staff3	*staff3	*staff2	*staff1
*Iorgan	*	*Ivioln	*	*Ivioln	*	*Iempty	*	*Itenor	*	*Ialto	*	*Ivox	*	*Iempty	*Iempty
*I"Organo	*	*I"Violino Secondo	*	*I"Violino Primo	*	*I"Baſso	*	*I"Tenore	*	*I"Alto	*	*I"Canto	*	*I"Clarino Secondo Ex D:	*I"Clarino Primo Ex D:
*I'org	*	*I'vl II	*	*I'vl I	*	*I'B	*	*I'T	*	*I'A	*	*I'C	*	*I'clno II	*I'clno I
*clefF4	*	*clefG2	*	*clefG2	*	*clefF4	*	*clefC4	*	*clefC3	*	*clefC1	*	*clefG2	*clefG2
*	*	*	*	*	*	*	*	*	*	*	*	*	*	*ITrd-1c-2	*ITrd-1c-2
*k[f#]	*	*k[f#]	*	*k[f#]	*	*k[f#]	*	*k[f#]	*	*k[f#]	*	*k[f#]	*	*k[f#]	*k[f#]
*e:	*	*e:	*	*e:	*	*e:	*	*e:	*	*e:	*	*e:	*	*e:	*e:
*M4/4	*	*M4/4	*	*M4/4	*	*M4/4	*	*M4/4	*	*M4/4	*	*M4/4	*	*M4/4	*M4/4
*met(c)	*	*met(c)	*	*met(c)	*	*met(c)	*	*met(c)	*	*met(c)	*	*met(c)	*	*met(c)	*met(c)
=1	=1	=1	=1	=1	=1	=1	=1	=1	=1	=1	=1	=1	=1	=1	=1
!!LO:TX:a:Bi:t=Moderatto
!LO:TX:a:Bi:t=tutti	!	!	!	!	!	!	!	!	!	!	!	!	!	!	!
!LO:TX:a:t=P:problem=oznaczenie metryczne C z kropką	!	!LO:TX:a:t=P:problem=oznaczenie metryczne C z kropką	!	!LO:TX:a:t=P:problem=oznaczenie metryczne C z kropką	!	!LO:TX:a:t=P:problem=oznaczenie metryczne C z kropką	!	!LO:TX:a:t=P:problem=oznaczenie metryczne C z kropką	!	!LO:TX:a:t=P:problem=oznaczenie metryczne C z kropką	!	!LO:TX:a:t=P:problem=oznaczenie metryczne C z kropką	!	!	!
!	!	!	!	!	!	!	!	!	!	!	!	!	!	!LO:TX:a:B:t=Kyrie Tacet.	!LO:TX:a:B:t=Kyrie Tacet
!	!	!	!	!	!LO:DY:a	!	!	!	!	!	!	!	!	!	!
8.E\L	.	8.g/L	.	8.ee\L	f	8.E\	Ky-	8.B\	Ky-	8.g\	Ky-	8.ee\	Ky-	1ryy	1ryy
16D#X\Jk	.	16a/Jk	.	16ff#\Jk	.	16D#X\	-ri-	16B\	-ri-	16a\	-ri-	16ff#\	-ri-	.	.
!	!	!LO:TX:a:t=P:global:problem=klamra łukowa kropka zamiast numeru	!	!LO:TX:a:t=P:global:problem=klamra łukowa kropka zamiast numeru	!	!	!	!	!	!	!	!	!	!	!
8E\L	.	24b/LL	.	24gg\LL	.	8E\	-e	8B\	-e	8g\	-e	8ee\	-e	.	.
.	.	24a/	.	24ff#\	.	.	.	.	.	.	.	.	.	.	.
.	.	24g/JJ	.	24ee\JJ	.	.	.	.	.	.	.	.	.	.	.
8E\J	.	16b/LL	.	16gg\LL	.	8E\	e-	8B\	e-	8g\	e-	8ee\	e-	.	.
.	.	16g/JJ	.	16ee\JJ	.	.	.	.	.	.	.	.	.	.	.
!LO:TX:a:t=P:problem=mixed beam	!	!	!	!	!	!	!	!	!	!	!	!	!	!	!
8B\L	.	8g/L	.	8ee\L	.	8B\	-lei-	8B\	-lei-	8g\	-lei-	8ee\	-lei-	.	.
8BB\J	.	8f#/J	.	8dd#X\J	.	8BB/	-ſon	8B\	-ſon	8f#\	-ſon	8dd#X\	-ſon	.	.
4r	.	16dd#X\LL	.	16dd#\LL	.	4r	.	4r	.	4r	.	4r	.	.	.
.	.	16cc\	.	16cc\	.	.	.	.	.	.	.	.	.	.	.
.	.	16cc\	.	16cc\	.	.	.	.	.	.	.	.	.	.	.
.	.	16b\JJ	.	16b\JJ	.	.	.	.	.	.	.	.	.	.	.
=2	=2	=2	=2	=2	=2	=2	=2	=2	=2	=2	=2	=2	=2	=2	=2
8r	.	4b\	.	4b\	.	8r	.	8r	.	8r	.	8r	.	1ryy	1ryy
16E\LL	.	.	.	.	.	16E\LL	Chri-	8B\	Chri-	16g\LL	Chri-	16ee\LL	Chri-	.	.
16D#X\JJ	.	.	.	.	.	16D#X\JJ	.	.	.	16a\JJ	.	16ff#\JJ	.	.	.
8E\L	.	24g/LL	.	24ee\LL	.	8E\	-ſte	8B\	-ſte	8g\	-ſte	8ee\	-ſte	.	.
.	.	24b/	.	24dd#X\	.	.	.	.	.	.	.	.	.	.	.
.	.	24a/JJ	.	24cc\JJ	.	.	.	.	.	.	.	.	.	.	.
8E\J	.	24g/LL	.	24b/LL	.	8E\	e-	8B\	e-	8g\	e-	8ee\	e-	.	.
.	.	24f#/	.	24a/	.	.	.	.	.	.	.	.	.	.	.
.	.	24e/JJ	.	24g/JJ	.	.	.	.	.	.	.	.	.	.	.
!LO:TX:a:t=P:problem=mixed beam	!	!	!	!	!	!	!	!	!	!	!	!	!	!	!
8B\L	.	8e/L	.	8g/L	.	8B\	-lei-	8B\	-lei-	8g\	-lei-	8ee\	-lei-	.	.
8BB\J	.	8d#X/J	.	8f#/J	.	8BB/	-ſon	8B\	-ſon	8f#\	-ſon	8dd#X\	-ſon	.	.
4r	.	16dd#X\LL	.	16dd#X\LL	.	4r	.	4r	.	4r	.	4r	.	.	.
.	.	16cc\	.	16cc\	.	.	.	.	.	.	.	.	.	.	.
.	.	16cc\	.	16cc\	.	.	.	.	.	.	.	.	.	.	.
.	.	16b\JJ	.	16b\JJ	.	.	.	.	.	.	.	.	.	.	.
=3	=3	=3	=3	=3	=3	=3	=3	=3	=3	=3	=3	=3	=3	=3	=3
8r	.	4b\	.	4b\	.	8r	.	8r	.	8r	.	8r	.	1ryy	1ryy
16E\LL	.	.	.	.	.	16E\LL	Chri-	8B\	Chri-	16g\LL	Chri-	16ee\LL	Chri-	.	.
16D#X\JJ	.	.	.	.	.	16D#X\JJ	.	.	.	16a\JJ	.	16ff#\JJ	.	.	.
8E\L	.	24g/LL	.	24ee\LL	.	8E\	-ſte	8B\	-ſte	8g\	-ſte	8ee\	-ſte	.	.
.	.	24b/	.	24dd#X\	.	.	.	.	.	.	.	.	.	.	.
.	.	24a/JJ	.	24cc\JJ	.	.	.	.	.	.	.	.	.	.	.
8E\J	.	24g/LL	.	24b/LL	.	8E\	e-	8B\	e-	8g\	e-	8ee\	e-	.	.
.	.	24f#/	.	24a/	.	.	.	.	.	.	.	.	.	.	.
.	.	24e/JJ	.	24g/JJ	.	.	.	.	.	.	.	.	.	.	.
!LO:TX:a:t=P:problem=mixed beam	!	!	!	!	!	!	!	!	!	!	!	!	!	!	!
8B\L	.	8e/L	.	8g/L	.	8B\	-lei-	8B\	-lei-	8g\	-lei-	8ee\	-lei-	.	.
8BB\J	.	8d#X/J	.	8f#/J	.	8BB/	-ſon	8B\	-ſon	8f#\	-ſon	8dd#X\	-ſon	.	.
8r	.	16B/LL	.	16g/LL	.	8r	.	8r	.	8r	.	8r	.	.	.
.	.	16e/	.	16e/	.	.	.	.	.	.	.	.	.	.	.
*	*	*	*	*	*	*	*ij	*	*ij	*	*ij	*	*ij	*	*
8E\	.	16g/	.	16g/	.	8E\	e-	8B\	e-	8g\	e-	8ee\	e-	.	.
.	.	16b/JJ	.	16b/JJ	.	.	.	.	.	.	.	.	.	.	.
=4	=4	=4	=4	=4	=4	=4	=4	=4	=4	=4	=4	=4	=4	=4	=4
8D#X\L	.	16b/LL	.	16b/LL	.	8D#X\L	-lei-	4B\	-lei-	4a\	-lei-	4ff#\	-lei-	1ryy	1ryy
.	.	16a/	.	16a/	.	.	.	.	.	.	.	.	.	.	.
8F#\	.	16g/	.	16g/	.	8F#\J	.	.	.	.	.	.	.	.	.
.	.	16a/JJ	.	16a/JJ	.	.	.	.	.	.	.	.	.	.	.
8BB\	.	24ff#\LL	.	24ff#\LL	.	8BB/	-ſon	8B\	-ſon	8a\	-ſon	8ff#\	-ſon	.	.
.	.	24ee\	.	24ee\	.	.	.	.	.	.	.	.	.	.	.
.	.	24dd#X\JJ	.	24dd#X\JJ	.	.	.	.	.	.	.	.	.	.	.
8D#\J	.	24cc\LL	.	24cc\LL	.	8D#\	e-	8B\	e-	8a\	e-	8ff#\	e-	.	.
.	.	24b\	.	24b\	.	.	.	.	.	.	.	.	.	.	.
.	.	24a\JJ	.	24a\JJ	.	.	.	.	.	.	.	.	.	.	.
8E\L	.	16a/LL	.	16a/LL	.	4E\	-lei-	4B\	-lei-	4g\	-lei-	4ee\	-lei-	.	.
.	.	16g/J	.	16g/J	.	.	.	.	.	.	.	.	.	.	.
8E\	.	8g/J	.	8g/J	.	.	.	.	.	.	.	.	.	.	.
8G\	.	16g/LL	.	16g/LL	.	8G\	-ſon	8B\	-ſon	8g\	-ſon	8ee\	-ſon	.	.
.	.	16e/	.	16e/	.	.	.	.	.	.	.	.	.	.	.
*	*	*	*	*	*	*	*	*	*	*	*Xij	*	*	*	*
8E\J	.	16g/	.	16g/	.	8E\	e-	8B\	e-	8g\	e-	8ee\	e-	.	.
.	.	16b/JJ	.	16b/JJ	.	.	.	.	.	.	.	.	.	.	.
=5	=5	=5	=5	=5	=5	=5	=5	=5	=5	=5	=5	=5	=5	=5	=5
8D#X\L	.	16b/LL	.	16b/LL	.	8D#X\L	-lei-	4B\	-lei-	4a\	-lei-	4ff#\	-lei-	1ryy	1ryy
.	.	16a/	.	16a/	.	.	.	.	.	.	.	.	.	.	.
8F#\	.	16g/	.	16g/	.	8F#\J	.	.	.	.	.	.	.	.	.
.	.	16a/JJ	.	16a/JJ	.	.	.	.	.	.	.	.	.	.	.
8BB\	.	24ff#\LL	.	24ff#\LL	.	8BB/	-ſon	8B\	-ſon	8a\	-ſon	8ff#\	-ſon	.	.
.	.	24ee\	.	24ee\	.	.	.	.	.	.	.	.	.	.	.
.	.	24dd#X\JJ	.	24dd#X\JJ	.	.	.	.	.	.	.	.	.	.	.
*	*	*	*	*	*	*	*Xij	*	*	*	*	*	*Xij	*	*
8D#\J	.	24cc\LL	.	24cc\LL	.	8D#\	e-	8B\	e-	8a\	e-	8ff#\	e-	.	.
.	.	24b\	.	24b\	.	.	.	.	.	.	.	.	.	.	.
.	.	24a\JJ	.	24a\JJ	.	.	.	.	.	.	.	.	.	.	.
8E\L	.	16a/LL	.	16a/LL	.	4E\	-lei-	4B\	-lei-	4g\	-lei-	4ee\	-lei-	.	.
.	.	16g/J	.	16g/J	.	.	.	.	.	.	.	.	.	.	.
8E\	.	8g/J	.	8g/J	.	.	.	.	.	.	.	.	.	.	.
8G\	.	16g/LL	.	16g/LL	.	8G\	-ſon	8B\	-ſon	8g\	-ſon	8ee\	-ſon	.	.
.	.	16e/	.	16e/	.	.	.	.	.	.	.	.	.	.	.
*	*	*	*	*	*	*	*	*	*Xij	*	*	*	*	*	*
8E\J	.	16g/	.	16g/	.	8E\	e-	8B\	e-	8g\	e-	8ee\	e-	.	.
.	.	16b/JJ	.	16b/JJ	.	.	.	.	.	.	.	.	.	.	.
=6	=6	=6	=6	=6	=6	=6	=6	=6	=6	=6	=6	=6	=6	=6	=6
*	*	*	*	*	*	*	*	*2\right	*	*2\right	*	*	*	*	*
8D#X/L	.	16a/LL	.	16a/LL	.	8D#X/L	-lei-	4f#\	lei-	2b\	-lei-	4ff#\	-lei-	1ryy	1ryy
.	.	16b/	.	16b/	.	.	.	.	.	.	.	.	.	.	.
8BB/	.	16cc/	.	16cc/	.	8BB/	.	.	.	.	.	.	.	.	.
.	.	16b/JJ	.	16b/JJ	.	.	.	.	.	.	.	.	.	.	.
8E/	.	16a/LL	.	16a/LL	.	8E/	.	2e\	.	.	.	4gg#X\	.	.	.
.	.	16g#X/	.	16g#X/	.	.	.	.	.	.	.	.	.	.	.
8Dn/J	.	16f#/	.	16f#/	.	8Dn/J	.	.	.	.	.	.	.	.	.
.	.	16g#/JJ	.	16g#/JJ	.	.	.	.	.	.	.	.	.	.	.
8C#X/L	.	16g#/LL	.	16g#/LL	.	8C#X/L	.	.	.	2a\	.	4ee\	.	.	.
.	.	16a/	.	16a/	.	.	.	.	.	.	.	.	.	.	.
8AA/	.	16b/	.	16b/	.	8AA/	.	.	.	.	.	.	.	.	.
.	.	16a/JJ	.	16a/JJ	.	.	.	.	.	.	.	.	.	.	.
8D/	.	16gn/LL	.	16gn/LL	.	8D/	.	4dn\	.	.	.	4ff#\	.	.	.
.	.	16f#/	.	16f#/	.	.	.	.	.	.	.	.	.	.	.
!LO:SIC:v:s=8Cn/J	!	!	!	!	!	!	!	!	!	!	!	!	!	!	!
8C#/J	.	16e/	.	16e/	.	8Cn/J	.	.	.	.	.	.	.	.	.
.	.	16f#/JJ	.	16f#/JJ	.	.	.	.	.	.	.	.	.	.	.
=7	=7	=7	=7	=7	=7	=7	=7	=7	=7	=7	=7	=7	=7	=7	=7
8BB/L	.	16f#/LL	.	16f#/LL	.	4BB/	.	4d\	-ſon	4b\	.	4dd\	.	1ryy	1ryy
.	.	16g/	.	16g/	.	.	.	.	.	.	.	.	.	.	.
8BB/	.	16a/	.	16a/	.	.	.	.	.	.	.	.	.	.	.
.	.	16g/JJ	.	16g/JJ	.	.	.	.	.	.	.	.	.	.	.
*	*	*	*	*	*	*	*	*	*ij	*	*	*	*	*	*
8GG/	.	16b/LL	.	16b\LL	.	8GG/	-ſon	4d\	e-	8g\	-ſon	8b\	-ſon	.	.
.	.	16g/	.	16g\	.	.	.	.	.	.	.	.	.	.	.
*	*	*	*	*	*	*	*ij	*	*	*	*ij	*	*ij	*	*
8GG/J	.	16b/	.	16dd\	.	8G\	e-	.	.	8g\	e-	8b\	e-	.	.
.	.	16g/JJ	.	16b\JJ	.	.	.	.	.	.	.	.	.	.	.
!LO:TX:a:t=P:problem=mixed beam	!	!	!	!	!	!	!	!	!	!	!	!	!	!	!
8D\L	.	8g/L	.	8b\L	.	8d\	-lei-	8d\	-lei-	8g\	-lei-	8b\	-lei-	.	.
8DD\J	.	8f#/J	.	8a\J	.	8D\	-ſon	8d\	-ſon	8f#\	-ſon	8a\	-ſon	.	.
*	*	*	*	*	*	*	*	*	*	*	*Xij	*	*	*	*
8r	.	16cc/LL	.	16aa\LL	.	8r	.	8r	.	8r	.	8r	.	.	.
.	.	16a/	.	16ff#\	.	.	.	.	.	.	.	.	.	.	.
8F#\	.	16f#/	.	16dd\	.	8F#\	e-	8d\	e-	8a\	e-	8cc\	e-	.	.
.	.	16a/JJ	.	16cc\JJ	.	.	.	.	.	.	.	.	.	.	.
=8	=8	=8	=8	=8	=8	=8	=8	=8	=8	=8	=8	=8	=8	=8	=8
!LO:TX:a:t=P:problem=mixed beam	!	!	!	!	!	!	!	!	!	!	!	!	!	!	!
8G\L	.	8b/L	.	16b\LL	.	8G\	-lei-	8d\	-lei-	8a\	-lei-	8cc\	-lei-	1ryy	1ryy
.	.	.	.	16gg\	.	.	.	.	.	.	.	.	.	.	.
8GG\J	.	16a/L	.	16ff#\	.	8G\	-ſon	8d\	-ſon	8g\	-ſon	8b\	-ſon	.	.
.	.	16b/JJ	.	16gg\JJ	.	.	.	.	.	.	.	.	.	.	.
*	*	*	*	*	*	*	*Xij	*	*Xij	*	*	*	*Xij	*	*
8r	.	16a/LL	.	16ff#\LL	.	8r	.	8r	.	8r	.	8r	.	.	.
.	.	16b/	.	16gg\	.	.	.	.	.	.	.	.	.	.	.
8C/	.	16cc/	.	16ee\	.	8C/	e-	8c\	e-	8e\	e-	8a\	e-	.	.
.	.	16a/JJ	.	16cc\JJ	.	.	.	.	.	.	.	.	.	.	.
8BB/L	.	16g/LL	.	16b\LL	.	8BB/L	-lei-	8d\	-lei-	8d\L	-lei-	8b\	-lei-	.	.
.	.	16b/	.	16gg\	.	.	.	.	.	.	.	.	.	.	.
8E/	.	16b/	.	16gg\	.	8E/	.	4e\	.	8b\J	.	4gg\	.	.	.
.	.	16b/JJ	.	16gg\JJ	.	.	.	.	.	.	.	.	.	.	.
*	*	*tremolo	*	*	*	*	*	*	*	*	*	*	*	*	*
8C/	.	16a/LL	.	16gg\LL	.	8C/	.	.	.	4a\	.	.	.	.	.
.	.	16a/	.	16gg\	.	.	.	.	.	.	.	.	.	.	.
8D/J	.	16a/	.	16ff#\	.	8D/J	.	8d\	.	.	.	8ff#\	.	.	.
.	.	16a/JJ	.	16ff#\JJ	.	.	.	.	.	.	.	.	.	.	.
*	*	*Xtremolo	*	*	*	*	*	*	*	*	*	*	*	*	*
=9	=9	=9	=9	=9	=9	=9	=9	=9	=9	=9	=9	=9	=9	=9	=9
8.G\L	.	8.b\L	.	8.gg\L	.	8G\	-ſon	8d\	-ſon	8b\	-ſon	8gg\	-ſon	1ryy	1ryy
.	.	.	.	.	.	16G\	Ky-	16d\	Ky-	16b\	Ky-	16gg\	Ky-	.	.
16F#\Jk	.	16cc\Jk	.	16aa\Jk	.	16F#\	-ri-	16d\	-ri-	16cc\	-ri-	16aa\	-ri-	.	.
8G\L	.	24dd\LL	.	24bb\LL	.	8G\	-e	8d\	-e	8b\	-e	8gg\	-e	.	.
.	.	24cc\	.	24aa\	.	.	.	.	.	.	.	.	.	.	.
.	.	24b\JJ	.	24gg\JJ	.	.	.	.	.	.	.	.	.	.	.
8G\J	.	16dd\LL	.	16bb\LL	.	8G\	e-	8d\	e-	8b\	e-	8gg\	e-	.	.
.	.	16b\JJ	.	16gg\JJ	.	.	.	.	.	.	.	.	.	.	.
8d\L	.	8b\L	.	8gg\L	.	8d\	-lei-	8d\	-lei-	8b\	-lei-	8gg\	-lei-	.	.
8D\J	.	8a\J	.	8ff#\J	.	8D\	-ſon	8d\	-ſon	8a\	-ſon	8ff#\	-ſon	.	.
4r	.	16ff#\LL	.	16ff#\LL	.	4r	.	4r	.	4r	.	4r	.	.	.
.	.	16ee\	.	16ee\	.	.	.	.	.	.	.	.	.	.	.
.	.	16ee\	.	16ee\	.	.	.	.	.	.	.	.	.	.	.
.	.	16dd\JJ	.	16dd\JJ	.	.	.	.	.	.	.	.	.	.	.
=10	=10	=10	=10	=10	=10	=10	=10	=10	=10	=10	=10	=10	=10	=10	=10
8r	.	4dd\	.	4dd\	.	8r	.	8r	.	8r	.	8r	.	1ryy	1ryy
16G\LL	.	.	.	.	.	16G\LL	Chri-	8d\	Chri-	16b\LL	Chri-	16gg\LL	Chri-	.	.
16F#\JJ	.	.	.	.	.	16F#\JJ	.	.	.	16cc\JJ	.	16aa\JJ	.	.	.
8G\L	.	24b\LL	.	24gg\LL	.	8G\	-ſte	8d\	-ſte	8b\	-ſte	8gg\	-ſte	.	.
.	.	24dd\	.	24ff#\	.	.	.	.	.	.	.	.	.	.	.
.	.	24cc\JJ	.	24ee\JJ	.	.	.	.	.	.	.	.	.	.	.
8G\J	.	24b/LL	.	24dd\LL	.	8G\	e-	8d\	e-	8b\	e-	8gg\	e-	.	.
.	.	24a/	.	24cc\	.	.	.	.	.	.	.	.	.	.	.
.	.	24g/JJ	.	24b\JJ	.	.	.	.	.	.	.	.	.	.	.
8d\L	.	8g/L	.	8b\L	.	8d\	-lei-	8d\	-lei-	8b\	-lei-	8gg\	-lei-	.	.
8D\J	.	8f#/J	.	8a\J	.	8D\	-ſon	8d\	-ſon	8a\	-ſon	8ff#\	-ſon	.	.
4r	.	16ff#\LL	.	16ff#\LL	.	4r	.	4r	.	4r	.	4r	.	.	.
.	.	16ee\	.	16ee\	.	.	.	.	.	.	.	.	.	.	.
.	.	16ee\	.	16ee\	.	.	.	.	.	.	.	.	.	.	.
.	.	16dd\JJ	.	16dd\JJ	.	.	.	.	.	.	.	.	.	.	.
=11	=11	=11	=11	=11	=11	=11	=11	=11	=11	=11	=11	=11	=11	=11	=11
8r	.	4dd\	.	4dd\	.	8r	.	8r	.	8r	.	8r	.	1ryy	1ryy
16G\LL	.	.	.	.	.	16G\LL	Chri-	8d\	Chri-	16b\LL	Chri-	16gg\LL	Chri-	.	.
16F#\JJ	.	.	.	.	.	16F#\JJ	.	.	.	16cc\JJ	.	16aa\JJ	.	.	.
8G\L	.	24b\LL	.	24gg\LL	.	8G\	-ſte	8d\	-ſte	8b\	-ſte	8gg\	-ſte	.	.
.	.	24dd\	.	24ff#\	.	.	.	.	.	.	.	.	.	.	.
.	.	24cc\JJ	.	24ee\JJ	.	.	.	.	.	.	.	.	.	.	.
8G\J	.	24b/LL	.	24dd\LL	.	8G\	e-	8d\	e-	8b\	e-	8gg\	e-	.	.
.	.	24a/	.	24cc\	.	.	.	.	.	.	.	.	.	.	.
.	.	24g/JJ	.	24b\JJ	.	.	.	.	.	.	.	.	.	.	.
!LO:TX:a:t=P:problem=mixed beam	!	!	!	!	!	!	!	!	!	!	!	!	!	!	!
8D\L	.	8g/L	.	24b/LL	.	8d\	-lei-	8d\	-lei-	8b\	-lei-	8gg\	-lei-	.	.
.	.	.	.	24a/	.	.	.	.	.	.	.	.	.	.	.
.	.	.	.	24b/J	.	.	.	.	.	.	.	.	.	.	.
8DD\J	.	8f#/J	.	8a/J	.	8D\	-ſon	8d\	-ſon	8a\	-ſon	8ff#\	-ſon	.	.
8r	.	16d/LL	.	16b\LL	.	8r	.	8r	.	8r	.	8r	.	.	.
!	!	!	!	!LO:SIC:v:s=16g\	!	!	!	!	!	!	!	!	!	!	!
.	.	16g/	.	16f#\	.	.	.	.	.	.	.	.	.	.	.
*	*	*	*	*	*	*	*ij	*	*ij	*	*ij	*	*ij	*	*
8G\	.	16b/	.	16b\	.	8G\	e-	8d\	e-	8b\	e-	8dd\	e-	.	.
.	.	16dd/JJ	.	16dd\JJ	.	.	.	.	.	.	.	.	.	.	.
=12	=12	=12	=12	=12	=12	=12	=12	=12	=12	=12	=12	=12	=12	=12	=12
8F#\L	.	16dd\LL	.	16dd\LL	.	8F#\L	-lei-	4d\	-lei-	4a\	-lei-	4cc\	-lei-	1ryy	1ryy
.	.	16cc\	.	16cc\	.	.	.	.	.	.	.	.	.	.	.
8A\	.	16b\	.	16b\	.	8A\J	.	.	.	.	.	.	.	.	.
.	.	16cc\JJ	.	16cc\JJ	.	.	.	.	.	.	.	.	.	.	.
8D\	.	24aa\LL	.	24aa\LL	.	8D\	-ſon	8d\	-ſon	8a\	-ſon	8cc\	-ſon	.	.
.	.	24gg\	.	24gg\	.	.	.	.	.	.	.	.	.	.	.
.	.	24ff#\JJ	.	24ff#\JJ	.	.	.	.	.	.	.	.	.	.	.
8F#\J	.	24ee\LL	.	24ee\LL	.	8F#\	e-	8d\	e-	8a\	e-	8cc\	e-	.	.
.	.	24dd\	.	24dd\	.	.	.	.	.	.	.	.	.	.	.
.	.	24cc\JJ	.	24cc\JJ	.	.	.	.	.	.	.	.	.	.	.
8G\L	.	16cc\LL	.	16cc\LL	.	4G\	-lei-	4d\	-lei-	4g\	-lei-	4b\	-lei-	.	.
.	.	16b\J	.	16b\J	.	.	.	.	.	.	.	.	.	.	.
8G\	.	8b\J	.	8b\J	.	.	.	.	.	.	.	.	.	.	.
8B\	.	16b\LL	.	16b\LL	.	8B\	-ſon	8d\	-ſon	8g\	-ſon	8b\	-ſon	.	.
.	.	16g\	.	16g\	.	.	.	.	.	.	.	.	.	.	.
*	*	*	*	*	*	*	*	*	*	*	*Xij	*	*Xij	*	*
8G\J	.	16b\	.	16b\	.	8G\	e-	8d\	e-	8g\	e-	8b\	e-	.	.
.	.	16dd\JJ	.	16dd\JJ	.	.	.	.	.	.	.	.	.	.	.
=13	=13	=13	=13	=13	=13	=13	=13	=13	=13	=13	=13	=13	=13	=13	=13
8F#\L	.	16dd\LL	.	16dd\LL	.	8F#\L	-lei-	4d\	-lei-	4a\	-lei-	4cc\	-lei-	1ryy	1ryy
.	.	16cc\	.	16cc\	.	.	.	.	.	.	.	.	.	.	.
8A\	.	16b\	.	16b\	.	8A\J	.	.	.	.	.	.	.	.	.
.	.	16cc\JJ	.	16cc\JJ	.	.	.	.	.	.	.	.	.	.	.
8D\	.	24aa\LL	.	24aa\LL	.	8D\	-ſon	8d\	-ſon	8a\	-ſon	8cc\	-ſon	.	.
.	.	24gg\	.	24gg\	.	.	.	.	.	.	.	.	.	.	.
.	.	24ff#\JJ	.	24ff#\JJ	.	.	.	.	.	.	.	.	.	.	.
*	*	*	*	*	*	*	*Xij	*	*Xij	*	*	*	*	*	*
*	*	*	*	*	*	*	*	*	*	*	*ij	*	*ij	*	*
8F#\J	.	24ee\LL	.	24ee\LL	.	8F#\	e-	8d\	e-	8a\	e-	8cc\	e-	.	.
.	.	24dd\	.	24dd\	.	.	.	.	.	.	.	.	.	.	.
.	.	24cc\JJ	.	24cc\JJ	.	.	.	.	.	.	.	.	.	.	.
8G\L	.	16cc\LL	.	16cc\LL	.	4G\	-lei-	4d\	-lei-	4g\	-lei-	4b\	-lei-	.	.
.	.	16b\J	.	16b\J	.	.	.	.	.	.	.	.	.	.	.
8G\	.	8b\J	.	8b\J	.	.	.	.	.	.	.	.	.	.	.
8B\	.	24g/LL	.	24b\LL	.	8B\	-ſon	8d\	-ſon	8g\	-ſon	8b\	-ſon	.	.
.	.	24f#/	.	24a\	.	.	.	.	.	.	.	.	.	.	.
.	.	24g/JJ	.	24b\JJ	.	.	.	.	.	.	.	.	.	.	.
*	*	*	*	*	*	*	*ij	*	*ij	*	*	*	*	*	*
8G\J	.	24b/LL	.	24dd\LL	.	8G\	e-	8d\	e-	8g\	e-	8b\	e-	.	.
.	.	24a/	.	24cc\	.	.	.	.	.	.	.	.	.	.	.
.	.	24g/JJ	.	24b\JJ	.	.	.	.	.	.	.	.	.	.	.
=14	=14	=14	=14	=14	=14	=14	=14	=14	=14	=14	=14	=14	=14	=14	=14
8d\L	.	8g/L	.	8b\L	.	8d\	-lei-	8d\	-lei-	8g\	-lei-	8b\	-lei-	1ryy	1ryy
8D\J	.	8f#/J	.	8a\J	.	8D\	-ſon	8d\	-ſon	8f#\	-ſon	8a\	-ſon	.	.
8r	.	24ff#\LL	.	24aa\LL	.	8r	.	8r	.	8r	.	8r	.	.	.
.	.	24ee\	.	24gg\	.	.	.	.	.	.	.	.	.	.	.
.	.	24dd\JJ	.	24ff#\JJ	.	.	.	.	.	.	.	.	.	.	.
8F#\	.	24cc\LL	.	24ee\LL	.	8F#\	e-	8d\	e-	8a\	e-	8cc\	e-	.	.
.	.	24b\	.	24dd\	.	.	.	.	.	.	.	.	.	.	.
.	.	24a\JJ	.	24cc\JJ	.	.	.	.	.	.	.	.	.	.	.
!LO:TX:a:t=P:problem=mixed beam	!	!	!	!	!	!	!	!	!	!	!	!	!	!	!
8G\L	.	8a/L	.	8cc\L	.	8G\	-lei-	8d\	-lei-	8a\	-lei-	8cc\	-lei-	.	.
8GG\J	.	8g/J	.	8b\J	.	8G\	-ſon	8d\	-ſon	8g\	-ſon	8b\	-ſon	.	.
8r	.	24b\LL	.	24gg\LL	.	8r	.	8r	.	8r	.	8r	.	.	.
.	.	24dd\	.	24ff#\	.	.	.	.	.	.	.	.	.	.	.
.	.	24cc\JJ	.	24ee\JJ	.	.	.	.	.	.	.	.	.	.	.
8G\	.	24b/LL	.	24dd\LL	.	8G\	e-	8d\	e-	8g\	e-	8gg\	e-	.	.
.	.	24a/	.	24cc\	.	.	.	.	.	.	.	.	.	.	.
.	.	24g/JJ	.	24b\JJ	.	.	.	.	.	.	.	.	.	.	.
=15	=15	=15	=15	=15	=15	=15	=15	=15	=15	=15	=15	=15	=15	=15	=15
8d\L	.	8g/L	.	8b\L	.	8d\	-lei-	8d\	-lei-	8b\	-lei-	8gg\	-lei-	1ryy	1ryy
8D\J	.	8f#/J	.	8a\J	.	8D\	-ſon	8d\	-ſon	8a\	-ſon	8ff#\	-ſon	.	.
*	*	*	*	*	*	*	*	*	*Xij	*	*Xij	*	*Xij	*	*
8r	.	16g\LL	.	16g\LL	.	8r	.	8r	.	8r	.	8r	.	.	.
.	.	16b\	.	16b\	.	.	.	.	.	.	.	.	.	.	.
!	!	!	!	!LO:SIC:v:s=16dd\	!	!	!	!	!	!	!	!	!	!	!
8B\	.	16dd\	.	16cc\	.	8B\	e-	8d\	e-	8b\	e-	8gg\	e-	.	.
.	.	16gg\JJ	.	16gg\JJ	.	.	.	.	.	.	.	.	.	.	.
8c\L	.	8ee\L	.	8ee\L	.	4c\	-lei-	4e\	-lei-	4cc\	-lei-	4aa\	-lei-	.	.
8c\	.	16ee\L	.	16ccc\L	.	.	.	.	.	.	.	.	.	.	.
.	.	16cc\JJ	.	16aa\JJ	.	.	.	.	.	.	.	.	.	.	.
8d\	.	8b/L	.	8gg\L	.	8d\L	.	4d\	.	8b\L	.	8gg\L	.	.	.
8D\J	.	8a/J	.	8ff#\J	.	8D\J	.	.	.	8a\J	.	8ff#\J	.	.	.
=16	=16	=16	=16	=16	=16	=16	=16	=16	=16	=16	=16	=16	=16	=16	=16
*	*	*	*	*	*	*2\right	*	*	*	*	*	*	*	*	*
8G\L	.	(8.b/L	.	(8.gg\L	.	4G\	-ſon	4d\	-ſon	4b\	-ſon	4gg\	-ſon	1ryy	1ryy
8G\	.	.	.	.	.	.	.	.	.	.	.	.	.	.	.
.	.	32a/LL	.	32ff#\LL	.	.	.	.	.	.	.	.	.	.	.
.	.	32b/JJJ)	.	32gg\JJJ)	.	.	.	.	.	.	.	.	.	.	.
*	*	*	*	*	*	*	*Xij	*	*	*	*	*	*	*	*
8G\	.	16a`/LL	.	16ff#`\LL	.	4G\	e-	4d\	e-	4a\	e-	4ff#\	e-	.	.
.	.	16a`/	.	16ff#`\	.	.	.	.	.	.	.	.	.	.	.
8G\J	.	16a`/	.	16ff#`\	.	.	.	.	.	.	.	.	.	.	.
.	.	16a`/JJ	.	16ff#`\JJ	.	.	.	.	.	.	.	.	.	.	.
8G\L	.	(8.dd\L	.	(8.ffn\L	.	2G\	-lei-	2G/	-lei-	4dd\	-lei-	4ffn\	-lei-	.	.
8G\	.	.	.	.	.	.	.	.	.	.	.	.	.	.	.
.	.	32cc\LL	.	32ee\LL	.	.	.	.	.	.	.	.	.	.	.
.	.	32dd\JJJ)	.	32ff\JJJ)	.	.	.	.	.	.	.	.	.	.	.
8G\	.	16cc`\LL	.	16ee`\LL	.	.	.	.	.	4cc\	.	4ee\	.	.	.
.	.	16cc`\	.	16ee`\	.	.	.	.	.	.	.	.	.	.	.
8G\J	.	16cc`\	.	16ee`\	.	.	.	.	.	.	.	.	.	.	.
.	.	16cc`\JJ	.	16ee`\JJ	.	.	.	.	.	.	.	.	.	.	.
=17	=17	=17	=17	=17	=17	=17	=17	=17	=17	=17	=17	=17	=17	=17	=17
*2\right	*	*	*	*	*	*	*	*	*	*	*	*2\right	*	*	*
*tremolo	*	*	*	*	*	*	*	*	*	*	*	*	*	*	*
8G\L	.	(8.a/L	.	(8.ff#X\L	.	2G\	.	2G/	.	2a\	.	2ff#X\	.	1ryy	1ryy
8G\	.	.	.	.	.	.	.	.	.	.	.	.	.	.	.
.	.	32g/LL	.	32ee\LL	.	.	.	.	.	.	.	.	.	.	.
.	.	32a/JJJ)	.	32ff#\JJJ)	.	.	.	.	.	.	.	.	.	.	.
8G\	.	16a`/LL	.	16ff#`\LL	.	.	.	.	.	.	.	.	.	.	.
.	.	16a`/	.	16ff#`\	.	.	.	.	.	.	.	.	.	.	.
8G\J	.	16a`/	.	16ff#`\	.	.	.	.	.	.	.	.	.	.	.
.	.	16a`/JJ	.	16ff#`\JJ	.	.	.	.	.	.	.	.	.	.	.
*Xtremolo	*	*	*	*	*	*	*	*	*	*	*	*	*	*	*
!LO:TX:a:t=P:problem=mixed beam	!	!	!	!	!	!	!	!	!	!	!	!	!	!	!
8G\L	.	8b/L	.	16gg\LL	.	8G\	-ſon	8G/	-ſon	8b\	-ſon	8gg\	-ſon	.	.
.	.	.	.	16dd\	.	.	.	.	.	.	.	.	.	.	.
*	*	*	*	*	*	*	*ij	*	*ij	*	*ij	*	*ij	*	*
8c\	.	16cc/L	.	16ee\	.	8c\	e-	8e\	e-	8cc\	e-	8aa\	e-	.	.
.	.	16a/JJ	.	16cc\JJ	.	.	.	.	.	.	.	.	.	.	.
8d\	.	8g/L	.	8b\L	.	8d\L	-lei-	4d\	-lei-	8b\L	-lei-	8gg\L	-lei-	.	.
8D\J	.	8f#/J	.	8a\J	.	8D\J	.	.	.	8a\J	.	8ff#\J	.	.	.
=18	=18	=18	=18	=18	=18	=18	=18	=18	=18	=18	=18	=18	=18	=18	=18
8G\L	.	16g/LL	.	16b\LL	.	8G\	-ſon	8d\	-ſon	8b\	-ſon	8gg\	-ſon	1ryy	1ryy
.	.	16b/	.	16gg\	.	.	.	.	.	.	.	.	.	.	.
*	*	*	*	*	*	*	*	*	*	*	*	*	*Xij	*	*
8E\	.	16b/	.	16gg\	.	8E\	e-	8e\	e-	8b\	e-	8gg\	e-	.	.
.	.	16b/JJ	.	16gg\JJ	.	.	.	.	.	.	.	.	.	.	.
*	*	*tremolo	*	*	*	*	*	*	*	*	*	*	*	*	*
8C\	.	16a/LL	.	16gg\LL	.	8C/L	-lei-	8e\L	-lei-	4a\	-lei-	8gg\L	-lei-	.	.
.	.	16a/	.	16gg\	.	.	.	.	.	.	.	.	.	.	.
8D\J	.	16a/	.	16ff#\	.	8D/J	.	8d\J	.	.	.	8ff#\J	.	.	.
.	.	16a/JJ	.	16ff#\JJ	.	.	.	.	.	.	.	.	.	.	.
*	*	*Xtremolo	*	*	*	*	*	*	*	*	*	*	*	*	*
!LO:TX:a:t=P:problem=mixed beam	!	!	!	!	!	!	!	!	!	!	!	!	!	!	!
8GG\L	.	8b/L	.	8gg\L	.	4GG/	-ſon	4d\	-ſon	4b\	-ſon	4gg\	-ſon	.	.
8G\J	.	8bJ 8d/	.	8ggJ 8b\	.	.	.	.	.	.	.	.	.	.	.
*	*	*	*	*	*	*	*Xij	*	*Xij	*	*Xij	*	*	*	*
!LO:TX:a:Bi:t=Solo	!	!	!	!	!	!	!	!	!	!	!	!	!	!	!
4GG/	.	4b 4d/	.	4gg 4b\	.	4r	.	4r	.	4r	.	4r	.	.	.
=19	=19	=19	=19	=19	=19	=19	=19	=19	=19	=19	=19	=19	=19	=19	=19
!	!LO:DY:a	!	!LO:DY:a	!	!LO:DY:a	!	!	!	!	!	!	!LO:TX:a:Bi:t=Solo	!	!	!
8G\L	p	8b/L	p	8.dd\L	p	1r	.	1r	.	1r	.	8.dd\L	Chri-	1ryy	1ryy
8G\	.	8b/	.	.	.	.	.	.	.	.	.	.	.	.	.
.	.	.	.	16ee\Jk	.	.	.	.	.	.	.	16ee\Jk	.	.	.
8G\	.	8b/	.	8dd\L	.	.	.	.	.	.	.	8dd\	-ſte	.	.
8G\J	.	8b/J	.	8dd\J	.	.	.	.	.	.	.	8dd\	e-	.	.
8F#\L	.	8a/L	.	8.dd\L	.	.	.	.	.	.	.	8.dd\L	-lei-	.	.
8D\	.	8a/	.	.	.	.	.	.	.	.	.	.	.	.	.
.	.	.	.	32ee\LL	.	.	.	.	.	.	.	32ee\LL	.	.	.
.	.	.	.	32ff#\JJJ	.	.	.	.	.	.	.	32ff#\JJJ	.	.	.
8G\	.	8b/	.	8gg\L	.	.	.	.	.	.	.	8gg\	-ſon	.	.
*	*	*	*	*	*	*	*	*	*	*	*	*	*ij	*	*
8B\J	.	8g/J	.	8dd\J	.	.	.	.	.	.	.	8dd\	e-	.	.
=20	=20	=20	=20	=20	=20	=20	=20	=20	=20	=20	=20	=20	=20	=20	=20
*	*	*	*	*	*	*	*	*	*	*	*	*Xtuplet	*	*	*
!LO:TX:a:t=P:problem=mixed beam	!	!	!	!	!	!	!	!	!	!LO:TX:a:t=Solo:	!	!	!	!	!
8c\L	.	8.a/L	.	8.cc\L	.	1r	.	1r	.	2r	.	8.cc\L	-lei-	1ryy	1ryy
8c\	.	.	.	.	.	.	.	.	.	.	.	.	.	.	.
.	.	16cc/Jk	.	16ee\Jk	.	.	.	.	.	.	.	16ee\Jk	.	.	.
8d\	.	16b/LL	.	16dd\LL	.	.	.	.	.	.	.	16dd\LL	-ſon	.	.
.	.	16a/	.	16cc\	.	.	.	.	.	.	.	16cc\JJ	.	.	.
8D\J	.	16g/	.	16b\	.	.	.	.	.	.	.	16b\LL	e-	.	.
.	.	16f#/JJ	.	16a\JJ	.	.	.	.	.	.	.	16a\JJ	.	.	.
!LO:TX:a:t=P:problem=mixed beam	!	!	!	!	!	!	!	!	!	!	!	!LO:TX:a:t=P:problem=triola bez numeru i łuku	!	!	!
8G\L	.	16d/LL	.	24b/LL	.	.	.	.	.	4r	.	24b\LL	-lei-	.	.
.	.	.	.	24a/	.	.	.	.	.	.	.	24a\	.	.	.
.	.	16c/	.	.	.	.	.	.	.	.	.	.	.	.	.
.	.	.	.	24g/J	.	.	.	.	.	.	.	24g\JJ	.	.	.
8GG\	.	16B/	.	8g/J	.	.	.	.	.	.	.	8g\	-ſon	.	.
.	.	16B/JJ	.	.	.	.	.	.	.	.	.	.	.	.	.
*	*	*	*	*	*	*	*	*	*	*	*	*	*Xij	*	*
8G\J	.	8r	.	8r	.	.	.	.	.	8r	.	8r	.	.	.
8r	.	8g/	.	8b\	.	.	.	.	.	8g\	e-	8b\	e-	.	.
*	*	*	*	*	*	*	*	*	*	*	*	*tuplet	*	*	*
=21	=21	=21	=21	=21	=21	=21	=21	=21	=21	=21	=21	=21	=21	=21	=21
8D\L	.	8.f#/L	.	8.a\L	.	1r	.	1r	.	8.f#\L	-lei-	8.a\L	-lei-	1ryy	1ryy
8D\	.	.	.	.	.	.	.	.	.	.	.	.	.	.	.
.	.	16g/Jk	.	16b\Jk	.	.	.	.	.	16g\Jk	.	16b\Jk	.	.	.
8D\	.	16a/LL	.	16cc\LL	.	.	.	.	.	16a\LL	-ſon	16cc\LL	-ſon	.	.
.	.	16f#/	.	16a\	.	.	.	.	.	16f#\JJ	.	16a\JJ	.	.	.
*	*	*	*	*	*	*	*	*	*	*	*ij	*	*ij	*	*
8D\J	.	16g/	.	16b\	.	.	.	.	.	16g\LL	e-	16b\LL	e-	.	.
.	.	16a/JJ	.	16cc\JJ	.	.	.	.	.	16a\JJ	.	16cc\JJ	.	.	.
8G\L	.	8.b/L	.	8.dd\L	.	.	.	.	.	8.b\L	-lei-	8.dd\L	-lei-	.	.
8G\	.	.	.	.	.	.	.	.	.	.	.	.	.	.	.
.	.	16a/Jk	.	16cc\Jk	.	.	.	.	.	16a\Jk	.	16cc\Jk	.	.	.
8G\	.	8g/L	.	8b\L	.	.	.	.	.	8g\	-ſon	8b\	-ſon	.	.
8G\J	.	8b/J	.	16gg\L	.	.	.	.	.	16b\LL	e-	16gg\LL	e-	.	.
.	.	.	.	16ff#\JJ	.	.	.	.	.	16a\JJ	.	16ff#\JJ	.	.	.
=22	=22	=22	=22	=22	=22	=22	=22	=22	=22	=22	=22	=22	=22	=22	=22
!LO:TX:a:t=P:problem=mixed beam	!	!	!	!	!	!	!	!	!	!	!	!	!	!	!
8G/L	.	8b/L	.	8.gg\L	.	1r	.	1r	.	4b\	-lei-	8.gg\L	-lei-	1ryy	1ryy
8GG/	.	8b/J	.	.	.	.	.	.	.	.	.	.	.	.	.
.	.	.	.	16dd\Jk	.	.	.	.	.	.	.	16dd\Jk	.	.	.
8C/	.	16b/LL	.	16dd\LL	.	.	.	.	.	16b\LL	-ſon	16dd\LL	-ſon	.	.
.	.	16a/	.	16cc\	.	.	.	.	.	16a\JJ	.	16cc\JJ	.	.	.
8C#X/J	.	16a/	.	16cc\	.	.	.	.	.	16a\LL	e-	16cc\LL	e-	.	.
.	.	16g/JJ	.	16b\JJ	.	.	.	.	.	16g\JJ	.	16b\JJ	.	.	.
!LO:TX:a:t=P:problem=mixed beam	!	!	!	!	!	!	!	!	!	!	!	!	!	!	!
8D\L	.	8g/L	.	8b/L	.	.	.	.	.	8g\	-lei-	8b\	-lei-	.	.
8DD\J	.	8f#/J	.	8a/J	.	.	.	.	.	8f#\	-ſon	8a\	-ſon	.	.
*	*	*	*	*	*	*	*	*	*	*	*Xij	*	*Xij	*	*
16D\LL	.	4r	.	4r	.	.	.	.	.	4r	.	4r	.	.	.
16F#\	.	.	.	.	.	.	.	.	.	.	.	.	.	.	.
16A\	.	.	.	.	.	.	.	.	.	.	.	.	.	.	.
16F#\JJ	.	.	.	.	.	.	.	.	.	.	.	.	.	.	.
=23	=23	=23	=23	=23	=23	=23	=23	=23	=23	=23	=23	=23	=23	=23	=23
8D\L	.	8.f#/L	.	8.a/L	.	1r	.	1r	.	8.f#\L	Chri-	8.a\L	Chri-	1ryy	1ryy
8D\	.	.	.	.	.	.	.	.	.	.	.	.	.	.	.
.	.	32d/LL	.	32f#/LL	.	.	.	.	.	32d\LL	.	32f#\LL	.	.	.
.	.	32e/JJJ	.	32g/JJJ	.	.	.	.	.	32e\JJJ	.	32g\JJJ	.	.	.
8D\	.	8f#/L	.	8a/L	.	.	.	.	.	8f#\	-ſte	8a\	-ſte	.	.
8D\J	.	8f#/J	.	8a/J	.	.	.	.	.	8f#\	e-	8a\	e-	.	.
8D\L	.	16g/LL	.	16b\LL	.	.	.	.	.	16g\LL	-lei-	16b\LL	-lei-	.	.
.	.	16b/	.	16dd\	.	.	.	.	.	16b\	.	16dd\	.	.	.
8D\	.	16a/	.	16cc#X\	.	.	.	.	.	16a\	.	16cc#X\	.	.	.
.	.	16g/JJ	.	16ee\JJ	.	.	.	.	.	16g\JJ	.	16ee\JJ	.	.	.
8D\	.	8f#/L	.	8dd\L	.	.	.	.	.	8f#\	-ſon	8dd\	-ſon	.	.
*	*	*	*	*	*	*	*	*	*	*	*ij	*	*ij	*	*
8D\J	.	8f#/J	.	8a\J	.	.	.	.	.	8f#\	e-	8a\	e-	.	.
=24	=24	=24	=24	=24	=24	=24	=24	=24	=24	=24	=24	=24	=24	=24	=24
8D\L	.	8.a/L	.	8.ff#\L	.	1r	.	1r	.	4a\	-lei-	4ff#\	-lei-	1ryy	1ryy
8D\	.	.	.	.	.	.	.	.	.	.	.	.	.	.	.
.	.	32g/LL	.	32ee\LL	.	.	.	.	.	.	.	.	.	.	.
.	.	32a/JJJ	.	32ff#\JJJ	.	.	.	.	.	.	.	.	.	.	.
8D\	.	16b/LL	.	16gg\LL	.	.	.	.	.	16b\LL	-ſon	16gg\LL	-ſon	.	.
.	.	16a/	.	16ff#\	.	.	.	.	.	16a\JJ	.	16ff#\JJ	.	.	.
8D\J	.	16g/	.	16ee\	.	.	.	.	.	16g\LL	e-	16ee\LL	e-	.	.
.	.	16f#/JJ	.	16dd\JJ	.	.	.	.	.	16f#\JJ	.	16dd\JJ	.	.	.
!LO:TX:a:t=P:problem=mixed beam	!	!	!	!	!	!	!	!	!	!	!	!	!	!	!
8A\L	.	8.f#/L	.	8.dd\L	.	.	.	.	.	4f#\	-lei-	4dd\	-lei-	.	.
8A\	.	.	.	.	.	.	.	.	.	.	.	.	.	.	.
.	.	32e/LL	.	32cc#X\LL	.	.	.	.	.	.	.	.	.	.	.
.	.	32f#/JJJ	.	32dd\JJJ	.	.	.	.	.	.	.	.	.	.	.
8AA\	.	8e/L	.	8cc#\L	.	.	.	.	.	8e\	-ſon	8cc#X\	-ſon	.	.
*	*	*	*	*	*	*	*	*	*	*	*Xij	*	*	*	*
!	!	!LO:SIC:v:s=8c#/J	!	!	!	!	!	!	!	!	!	!	!	!	!
8AA\J	.	8c/J	.	8a\J	.	.	.	.	.	8c#X\	e-	8a\	e-	.	.
=25	=25	=25	=25	=25	=25	=25	=25	=25	=25	=25	=25	=25	=25	=25	=25
8D\L	.	8f#/L	.	4dd\	.	1r	.	1r	.	4f#\	-lei-	4dd\	-lei-	1ryy	1ryy
8D\	.	8f#/	.	.	.	.	.	.	.	.	.	.	.	.	.
8E\	.	8g/	.	8dd\L	.	.	.	.	.	8g\	-ſon	8dd\	-ſon	.	.
*	*	*	*	*	*	*	*	*	*	*	*	*	*Xij	*	*
8F#\J	.	8a/J	.	8dd\J	.	.	.	.	.	8a\	e-	8dd\	e-	.	.
!LO:TX:a:t=P:problem=mixed beam	!	!	!	!	!	!	!	!	!	!	!	!	!	!	!
8G\L	.	8b/L	.	8.ee\L	.	.	.	.	.	4b\	-lei-	8.ee\L	-lei-	.	.
8E\	.	8b/J	.	.	.	.	.	.	.	.	.	.	.	.	.
.	.	.	.	16gg\Jk	.	.	.	.	.	.	.	16gg\Jk	.	.	.
8A\	.	16a/LL	.	16ff#\LL	.	.	.	.	.	16a\LL	.	16ff#\LL	.	.	.
.	.	16f#/	.	16dd\	.	.	.	.	.	16f#\	.	16dd\	.	.	.
8AA\J	.	16e/	.	16cc#X\	.	.	.	.	.	16e\	.	16cc#X\	.	.	.
.	.	16g/JJ	.	16ee\JJ	.	.	.	.	.	16g\JJ	.	16ee\JJ	.	.	.
=26	=26	=26	=26	=26	=26	=26	=26	=26	=26	=26	=26	=26	=26	=26	=26
8D\L	.	8f#/L	.	4dd\	.	1r	.	1r	.	8f#\	-ſon	8dd\	-ſon	1ryy	1ryy
8D\J	.	8f#/	.	.	.	.	.	.	.	8f#\	Chri-	8dd\	Chri-	.	.
8E\L	.	8g/	.	8dd\L	.	.	.	.	.	8g\	-ſte	8dd\	-ſte	.	.
8F#\J	.	8a/J	.	8dd\J	.	.	.	.	.	8a\	e-	8dd\	e-	.	.
!LO:TX:a:t=P:problem=mixed beam	!	!	!	!	!	!	!	!	!	!	!	!	!	!	!
8G\L	.	8b/L	.	8.ee\L	.	.	.	.	.	4b\	-lei-	8.ee\L	-lei-	.	.
8E\	.	8b/J	.	.	.	.	.	.	.	.	.	.	.	.	.
.	.	.	.	16gg\Jk	.	.	.	.	.	.	.	16gg\Jk	.	.	.
8A\	.	16a/LL	.	16ff#\LL	.	.	.	.	.	16a\LL	.	16ff#\LL	.	.	.
.	.	16f#/	.	16dd\	.	.	.	.	.	16f#\	.	16dd\	.	.	.
8AA\J	.	16e/	.	16cc#X\	.	.	.	.	.	16e\	.	16cc#X\	.	.	.
.	.	16g/JJ	.	16ee\JJ	.	.	.	.	.	16g\JJ	.	16ee\JJ	.	.	.
=27	=27	=27	=27	=27	=27	=27	=27	=27	=27	=27	=27	=27	=27	=27	=27
8D\L	.	8f#/L	.	4dd\	.	1r	.	1r	.	4f#\	-ſon	8dd\	-ſon	1ryy	1ryy
8D\	.	8f#/	.	.	.	.	.	.	.	.	.	8dd\	Chri-	.	.
8F#\	.	8a/	.	16dd\LL	.	.	.	.	.	4r	.	16dd\LL	-ſte	.	.
.	.	.	.	16ee\	.	.	.	.	.	.	.	16ee\JJ	.	.	.
8F#\J	.	8a/J	.	16dd\	.	.	.	.	.	.	.	16dd\LL	e-	.	.
.	.	.	.	16ccn\JJ	.	.	.	.	.	.	.	16ccn\JJ	.	.	.
8G\L	.	8d/L	.	16cc\LL	.	.	.	.	.	2r	.	16cc\LL	-lei-	.	.
.	.	.	.	16b\J	.	.	.	.	.	.	.	16b\JJ	.	.	.
16G\L	.	8d/	.	8b\J	.	.	.	.	.	.	.	8b\	-ſon	.	.
16F#\JJ	.	.	.	.	.	.	.	.	.	.	.	.	.	.	.
8G\	.	8d/J	.	8r	.	.	.	.	.	.	.	8r	.	.	.
8r	.	8r	.	16dd\LL	.	.	.	.	.	.	.	16dd\LL	e-	.	.
!	!	!	!	!LO:TX:b:t=Verte	!	!	!	!	!	!	!	!	!	!	!
.	.	.	.	16b\JJ	.	.	.	.	.	.	.	16b\JJ	.	.	.
=28	=28	=28	=28	=28	=28	=28	=28	=28	=28	=28	=28	=28	=28	=28	=28
8r	.	8r	.	16b\LL	.	1r	.	1r	.	2r	.	16b\LL	-lei-	1ryy	1ryy
.	.	.	.	16a\J	.	.	.	.	.	.	.	16a\JJ	.	.	.
16F#\LL	.	8d/L	.	8a\J	.	.	.	.	.	.	.	8a\	-ſon	.	.
16E\JJ	.	.	.	.	.	.	.	.	.	.	.	.	.	.	.
8F#\	.	8d/J	.	8r	.	.	.	.	.	.	.	8r	.	.	.
8r	.	8r	.	16dd\LL	.	.	.	.	.	.	.	16dd\LL	Chri-	.	.
.	.	.	.	16cc\JJ	.	.	.	.	.	.	.	16cc\JJ	.	.	.
8r	.	8r	.	16cc\LL	.	.	.	.	.	8r	.	8b\	-ſte	.	.
.	.	.	.	16b\	.	.	.	.	.	.	.	.	.	.	.
!LO:TX:a:t=P:problem=mixed beam	!	!	!	!	!	!	!	!	!	!	!	!	!	!	!
8G\L	.	8b/	.	16ee\	.	.	.	.	.	16g\LL	e-	16ee\LL	e-	.	.
.	.	.	.	16gg\JJ	.	.	.	.	.	16b\JJ	.	16gg\JJ	.	.	.
8A\	.	16a/LL	.	16ff#\LL	.	.	.	.	.	16a\LL	-lei-	16ff#\LL	-lei-	.	.
.	.	16g/	.	16ee\	.	.	.	.	.	16g\	.	16ee\	.	.	.
8AA\J	.	16f#/	.	16dd\	.	.	.	.	.	16f#\	.	16dd\	.	.	.
.	.	16e/JJ	.	16cc#X\JJ	.	.	.	.	.	16e\JJ	.	16cc#X\JJ	.	.	.
=29	=29	=29	=29	=29	=29	=29	=29	=29	=29	=29	=29	=29	=29	=29	=29
!	!	!LO:TX:a:t=P:problem=mixed beam	!LO:DY:a	!	!LO:DY:a	!	!	!	!	!	!	!	!	!	!
8D\L	.	8f#\L	f	8dd\L	f	1r	.	1r	.	4f#\	-ſon	4dd\	-ſon	1ryy	1ryy
8F#\	.	16ff#\L	.	16ff#\L	.	.	.	.	.	.	.	.	.	.	.
.	.	16dd\JJ	.	16dd\JJ	.	.	.	.	.	.	.	.	.	.	.
8A\	.	16dd\LL	.	16dd\LL	.	.	.	.	.	4r	.	4r	.	.	.
.	.	16cc#X\	.	16cc#X\	.	.	.	.	.	.	.	.	.	.	.
8G\J	.	16cc#\	.	16cc#\	.	.	.	.	.	.	.	.	.	.	.
.	.	16ee\JJ	.	16ee\JJ	.	.	.	.	.	.	.	.	.	.	.
8F#\L	.	16ee\LL	.	16ee\LL	.	.	.	.	.	2r	.	2r	.	.	.
.	.	16dd\	.	16dd\	.	.	.	.	.	.	.	.	.	.	.
8F#\	.	16dd\	.	16dd\	.	.	.	.	.	.	.	.	.	.	.
.	.	16ff#\JJ	.	16ff#\JJ	.	.	.	.	.	.	.	.	.	.	.
8G\	.	16ff#\LL	.	16ff#\LL	.	.	.	.	.	.	.	.	.	.	.
.	.	16ee\	.	16ee\	.	.	.	.	.	.	.	.	.	.	.
8F#\J	.	16ee\	.	16ee\	.	.	.	.	.	.	.	.	.	.	.
.	.	16dd#X\JJ	.	16dd#X\JJ	.	.	.	.	.	.	.	.	.	.	.
=30	=30	=30	=30	=30	=30	=30	=30	=30	=30	=30	=30	=30	=30	=30	=30
*	*	*Xtuplet	*	*Xtuplet	*	*	*	*	*	*	*	*	*	*	*
!LO:TX:a:t=P:problem=mixed beam	!	!	!	!	!	!	!	!	!	!	!	!	!	!	!
!	!	!	!	!LO:SIC:v:s=16dd#\LL	!	!	!	!	!	!LO:TX:b:t=Verte	!	!	!	!	!
8G\L	.	8b/L	.	16dd\LL	.	1r	.	1r	.	1r	.	1r	.	1ryy	1ryy
.	.	.	.	16ee\JJ	.	.	.	.	.	.	.	.	.	.	.
!	!	!LO:TX:a:t=P:problem=triola bez numeru i łuku	!	!LO:TX:a:t=P:problem=triola bez numeru i łuku	!	!	!	!	!	!	!	!	!	!	!
8G\	.	24b/L	.	24gg\LL	.	.	.	.	.	.	.	.	.	.	.
.	.	24a/	.	24ff#\	.	.	.	.	.	.	.	.	.	.	.
.	.	24g/JJ	.	24ee\JJ	.	.	.	.	.	.	.	.	.	.	.
8A\	.	8f#/L	.	8dd\L	.	.	.	.	.	.	.	.	.	.	.
8AA\J	.	8e/J	.	8cc#X\J	.	.	.	.	.	.	.	.	.	.	.
8D\L	.	8f#/L	.	8dd\L	.	.	.	.	.	.	.	.	.	.	.
8d\J	.	8a/J	.	8a\J	.	.	.	.	.	.	.	.	.	.	.
!	!	!LO:TX:b:t=Verte	!	!	!	!	!	!	!	!	!	!	!	!	!
4D\	.	4d/	.	4f#/	.	.	.	.	.	.	.	.	.	.	.
*	*	*tuplet	*	*tuplet	*	*	*	*	*	*	*	*	*	*	*
=31	=31	=31	=31	=31	=31	=31	=31	=31	=31	=31	=31	=31	=31	=31	=31
!	!	!	!LO:DY:a	!	!LO:DY:a	!	!	!	!	!	!	!LO:TX:b:t=Verte	!	!	!
8D\L	.	8ff#\L	p	8.aa\L	p	1r	.	1r	.	8.a\L	Chri-	1r	.	1ryy	1ryy
8D\	.	8ff#\	.	.	.	.	.	.	.	.	.	.	.	.	.
.	.	.	.	16bb\Jk	.	.	.	.	.	16b\Jk	.	.	.	.	.
8D\	.	8ff#\	.	8aa\L	.	.	.	.	.	8a\	-ſte	.	.	.	.
8D\J	.	8ff#\J	.	8aa\J	.	.	.	.	.	8a\	e-	.	.	.	.
8C#X/L	.	8ee\L	.	8.aa\L	.	.	.	.	.	8.a\L	-lei-	.	.	.	.
8AA/J	.	8ee\	.	.	.	.	.	.	.	.	.	.	.	.	.
.	.	.	.	32bb\LL	.	.	.	.	.	32b\LL	.	.	.	.	.
.	.	.	.	32ccc#X\JJJ	.	.	.	.	.	32cc#X\JJJ	.	.	.	.	.
8D\L	.	8ff#\	.	8ddd\L	.	.	.	.	.	8dd\	-ſon	.	.	.	.
*	*	*	*	*	*	*	*	*	*	*	*ij	*	*	*	*
8d\J	.	8dd\J	.	8aa\J	.	.	.	.	.	8a\	e-	.	.	.	.
=32	=32	=32	=32	=32	=32	=32	=32	=32	=32	=32	=32	=32	=32	=32	=32
*	*	*Xtuplet	*	*	*	*	*	*	*	*Xtuplet	*	*	*	*	*
!LO:TX:a:t=P:problem=mixed beam	!	!	!	!	!	!	!	!	!	!	!	!	!	!	!
8G\L	.	8.ee\L	.	8.gg\L	.	1r	.	1r	.	8.g\L	-lei-	2r	.	1ryy	1ryy
8G\	.	.	.	.	.	.	.	.	.	.	.	.	.	.	.
.	.	16gg\Jk	.	16bb\Jk	.	.	.	.	.	16b\Jk	.	.	.	.	.
8G\	.	16ff#\LL	.	16aa\LL	.	.	.	.	.	16a\LL	-ſon	.	.	.	.
.	.	16ee\	.	16gg\	.	.	.	.	.	16g\JJ	.	.	.	.	.
8AA\J	.	16dd\	.	16ff#\	.	.	.	.	.	16f#\LL	e-	.	.	.	.
.	.	16cc#X\JJ	.	16ee\JJ	.	.	.	.	.	16e\JJ	.	.	.	.	.
!	!	!LO:TX:a:t=P:problem=triola bez numeru i łuku	!	!	!	!	!	!	!	!LO:TX:a:t=P:problem=triola bez numeru i łuku	!	!	!	!	!
8D\L	.	24a/LL	.	24ff#\LL	.	.	.	.	.	24f#\LL	-lei-	4r	.	.	.
.	.	24g/	.	24ee\	.	.	.	.	.	24e\	.	.	.	.	.
.	.	24f#/J	.	24dd\J	.	.	.	.	.	24d\JJ	.	.	.	.	.
8D\	.	8f#/J	.	8dd\J	.	.	.	.	.	8d\	-ſon	.	.	.	.
*	*	*	*	*	*	*	*	*	*	*	*Xij	*	*	*	*
8D\J	.	8r	.	8r	.	.	.	.	.	8r	.	8r	.	.	.
8r	.	8dd\	.	8ff#\	.	.	.	.	.	8f#\	e	8dd\	e-	.	.
*	*	*tuplet	*	*	*	*	*	*	*	*tuplet	*	*	*	*	*
=33	=33	=33	=33	=33	=33	=33	=33	=33	=33	=33	=33	=33	=33	=33	=33
8AA/L	.	8.cc#X\L	.	8.ee\L	.	1r	.	1r	.	8.e\L	-lei-	8.cc#X\L	-lei-	1ryy	1ryy
8AA/	.	.	.	.	.	.	.	.	.	.	.	.	.	.	.
.	.	16dd\Jk	.	16ff#\Jk	.	.	.	.	.	16f#\Jk	.	16dd\Jk	.	.	.
8AA/	.	16ee\LL	.	16gg\LL	.	.	.	.	.	16g\LL	-ſon	16ee\LL	-ſon	.	.
.	.	16cc#\	.	16ee\	.	.	.	.	.	16e\JJ	.	16cc#\JJ	.	.	.
*	*	*	*	*	*	*	*	*	*	*	*	*	*ij	*	*
8AA/J	.	16dd\	.	16ff#\	.	.	.	.	.	16f#\LL	e-	16dd\LL	e-	.	.
.	.	16ee\JJ	.	16gg\JJ	.	.	.	.	.	16g\JJ	.	16ee\JJ	.	.	.
8D\L	.	8.ff#\L	.	8.aa\L	.	.	.	.	.	8.a\L	-lei-	8.ff#\L	-lei-	.	.
8D\	.	.	.	.	.	.	.	.	.	.	.	.	.	.	.
.	.	16ee\Jk	.	16gg\Jk	.	.	.	.	.	16g\Jk	.	16ee\Jk	.	.	.
8D\	.	8dd\L	.	8ff#\L	.	.	.	.	.	8f#\	-ſon	8dd\	-ſon	.	.
*	*	*	*	*	*	*	*	*	*	*	*ij	*	*	*	*
8D\J	.	16dd\L	.	16ff#\L	.	.	.	.	.	16f#\LL	e-	16dd\LL	e-	.	.
.	.	16ff#\JJ	.	16aa\JJ	.	.	.	.	.	16a\JJ	.	16ff#\JJ	.	.	.
*Xtremolo	*	*	*	*	*	*	*	*	*	*	*	*	*	*	*
=34	=34	=34	=34	=34	=34	=34	=34	=34	=34	=34	=34	=34	=34	=34	=34
*	*	*Xtuplet	*	*	*	*	*	*	*	*	*	*	*	*	*
!LO:TX:a:t=P:problem=mixed beam	!	!	!	!	!	!	!	!	!	!	!	!	!	!	!
8G\L	.	16ff#\LL	.	16aa\LL	.	1r	.	1r	.	16a\LL	-lei-	16ff#\LL	-lei-	1ryy	1ryy
.	.	16ee\	.	16gg\	.	.	.	.	.	16g\	.	16ee\	.	.	.
8G\	.	16gg\	.	16bb\	.	.	.	.	.	16b\	.	16gg\	.	.	.
.	.	16ee\JJ	.	16gg\JJ	.	.	.	.	.	16g\JJ	.	16ee\JJ	.	.	.
8A\	.	16ee\LL	.	16gg\LL	.	.	.	.	.	16g\LL	-ſon	16ee\LL	-ſon	.	.
.	.	16dd\	.	16ff#\	.	.	.	.	.	16f#\JJ	.	16dd\JJ	.	.	.
*	*	*	*	*	*	*	*	*	*	*	*	*	*Xij	*	*
8AA\J	.	16dd\	.	16ff#\	.	.	.	.	.	16f#\LL	e-	16dd\LL	e-	.	.
.	.	16cc#X\JJ	.	16ee\JJ	.	.	.	.	.	16e\JJ	.	16cc#X\JJ	.	.	.
!LO:TX:a:t=P:problem=mixed beam	!	!LO:TX:a:t=P:problem=triola bez numeru i łuku	!	!	!	!	!	!	!	!	!	!	!	!	!
8D/L	.	24a/LL	.	24ff#\LL	.	.	.	.	.	8f#\	-lei-	8dd\	-lei-	.	.
.	.	24g/	.	24ee\	.	.	.	.	.	.	.	.	.	.	.
.	.	24f#/J	.	24dd\J	.	.	.	.	.	.	.	.	.	.	.
8DD/J	.	8f#/J	.	8dd\J	.	.	.	.	.	8f#\	-ſon	8dd\	-ſon	.	.
*	*	*	*	*	*	*	*	*	*	*	*Xij	*	*	*	*
8D\L	.	8f#/L	.	16dd\LL	.	.	.	.	.	4r	.	16dd\LL	e-	.	.
!	!	!	!	!LO:SIC:v:s=32cc#\L	!	!	!	!	!	!	!	!	!	!	!
.	.	.	.	32cc\L	.	.	.	.	.	.	.	32cc#\L	.	.	.
.	.	.	.	32dd\JJJ	.	.	.	.	.	.	.	32dd\JJJ	.	.	.
8D\J	.	8f#/J	.	16ee\LL	.	.	.	.	.	.	.	16ee\LL	-lei-	.	.
.	.	.	.	16dd\JJ	.	.	.	.	.	.	.	16dd\JJ	.	.	.
*	*	*tuplet	*	*	*	*	*	*	*	*	*	*	*	*	*
=35	=35	=35	=35	=35	=35	=35	=35	=35	=35	=35	=35	=35	=35	=35	=35
8E\L	.	8g/L	.	16dd\LL	.	1r	.	1r	.	1r	.	16dd\LL	.	1ryy	1ryy
.	.	.	.	16cc#X\	.	.	.	.	.	.	.	16cc#X\	.	.	.
8E\	.	8g/	.	16b\	.	.	.	.	.	.	.	16b\	.	.	.
.	.	.	.	16cc#\JJ	.	.	.	.	.	.	.	16cc#\JJ	.	.	.
8F#\	.	8a/	.	16aa\LL	.	.	.	.	.	.	.	16aa\LL	.	.	.
.	.	.	.	16ff#\	.	.	.	.	.	.	.	16ff#\	.	.	.
8F#\J	.	8a/J	.	16dd\	.	.	.	.	.	.	.	16dd\	.	.	.
.	.	.	.	16ccn\JJ	.	.	.	.	.	.	.	16ccn\JJ	.	.	.
8G\L	.	8d/L	.	16cc\LL	.	.	.	.	.	.	.	16cc\LL	.	.	.
.	.	.	.	16b\	.	.	.	.	.	.	.	16b\	.	.	.
8G\	.	8d/	.	16a\	.	.	.	.	.	.	.	16a\	.	.	.
.	.	.	.	16b\JJ	.	.	.	.	.	.	.	16b\JJ	.	.	.
8F#\	.	8d/	.	16dd\LL	.	.	.	.	.	.	.	16dd\LL	.	.	.
.	.	.	.	16cc\	.	.	.	.	.	.	.	16cc\	.	.	.
8F#\J	.	8d/J	.	16b\	.	.	.	.	.	.	.	16b\	.	.	.
.	.	.	.	16a\JJ	.	.	.	.	.	.	.	16a\JJ	.	.	.
=36	=36	=36	=36	=36	=36	=36	=36	=36	=36	=36	=36	=36	=36	=36	=36
!LO:TX:a:t=P:problem=mixed beam	!	!	!	!	!	!	!	!	!	!	!	!	!	!	!
8G\L	.	16g/LL	.	16b\LL	.	1r	.	1r	.	8r	.	8b\	-ſon	1ryy	1ryy
.	.	16b/	.	16dd\	.	.	.	.	.	.	.	.	.	.	.
8G\	.	16a/	.	16cc\	.	.	.	.	.	8b\	Chri-	8dd\	Chri-	.	.
.	.	16b/JJ	.	16dd\JJ	.	.	.	.	.	.	.	.	.	.	.
8GG\	.	16cc/LL	.	16ee\LL	.	.	.	.	.	16cc\LL	-ſte	16ee\LL	-ſte	.	.
.	.	16b/	.	16dd\	.	.	.	.	.	16b\JJ	.	16dd\JJ	.	.	.
8GG\J	.	16a/	.	16cc\	.	.	.	.	.	16a\LL	e-	16cc\LL	e-	.	.
.	.	16g/JJ	.	16b\JJ	.	.	.	.	.	16g\JJ	.	16b\JJ	.	.	.
!LO:TX:a:t=P:problem=mixed beam	!	!	!	!	!	!	!	!	!	!	!	!	!	!	!
8D\L	.	8.g/L	.	8.b\L	.	.	.	.	.	4g\	-lei-	4b\	-lei-	.	.
8D\	.	.	.	.	.	.	.	.	.	.	.	.	.	.	.
.	.	32f#/LL	.	32a\LL	.	.	.	.	.	.	.	.	.	.	.
.	.	32g/JJJ	.	32b\JJJ	.	.	.	.	.	.	.	.	.	.	.
8DD\	.	8f#/L	.	8a\L	.	.	.	.	.	8f#\	-ſon	8a\	-ſon	.	.
*	*	*	*	*	*	*	*	*	*	*	*ij	*	*	*	*
8DD\J	.	8a/J	.	8ff#\J	.	.	.	.	.	8f#\	e-	8a\	e-	.	.
=37	=37	=37	=37	=37	=37	=37	=37	=37	=37	=37	=37	=37	=37	=37	=37
!LO:TX:a:t=P:problem=mixed beam	!	!	!	!	!	!	!	!	!	!	!	!	!	!	!
8GG\L	.	8b\L	.	4gg\	.	1r	.	1r	.	4g\	-lei-	4b\	-lei-	1ryy	1ryy
8G\	.	8b\	.	.	.	.	.	.	.	.	.	.	.	.	.
8A\	.	8cc\	.	8gg\L	.	.	.	.	.	8g\	-ſon	8cc\	-ſon	.	.
8B\J	.	8dd\J	.	8gg\J	.	.	.	.	.	8g\	e-	8dd\	e-	.	.
8c\L	.	8ee\L	.	8.aa\L	.	.	.	.	.	8.a\L	-lei-	4ee\	-lei-	.	.
8A\	.	8ee\J	.	.	.	.	.	.	.	.	.	.	.	.	.
.	.	.	.	16ccc\Jk	.	.	.	.	.	16cc\Jk	.	.	.	.	.
8d\	.	16dd\LL	.	16bb\LL	.	.	.	.	.	16b\LL	.	16dd\LL	.	.	.
.	.	16b\	.	16gg\	.	.	.	.	.	16g\	.	16b\	.	.	.
8D\J	.	16a\	.	16ff#\	.	.	.	.	.	16f#\	.	16a\	.	.	.
.	.	16cc\JJ	.	16aa\JJ	.	.	.	.	.	16a\JJ	.	16cc\JJ	.	.	.
=38	=38	=38	=38	=38	=38	=38	=38	=38	=38	=38	=38	=38	=38	=38	=38
8G\L	.	8b\L	.	4gg\	.	1r	.	1r	.	8g\	-ſon	8b\	-ſon	1ryy	1ryy
*	*	*	*	*	*	*	*	*	*	*	*Xij	*	*	*	*
8G\	.	8b\	.	.	.	.	.	.	.	8g\	Chriſ-	8b\	Chri-	.	.
8A\	.	8cc\	.	8gg\L	.	.	.	.	.	8g\	-te	8cc\	-ſte	.	.
8B\J	.	8dd\J	.	8gg\J	.	.	.	.	.	8g\	e-	8dd\	e-	.	.
8c\L	.	8ee\L	.	8.aa\L	.	.	.	.	.	8.a\L	-lei-	4ee\	-lei-	.	.
8A\	.	8ee\J	.	.	.	.	.	.	.	.	.	.	.	.	.
.	.	.	.	16ccc\Jk	.	.	.	.	.	16cc\Jk	.	.	.	.	.
8d\	.	16dd\LL	.	16bb\LL	.	.	.	.	.	16b\LL	.	16dd\LL	.	.	.
.	.	16b\	.	16gg\	.	.	.	.	.	16g\	.	16b\	.	.	.
8D\J	.	16a\	.	16ff#\	.	.	.	.	.	16f#\	.	16a\	.	.	.
.	.	16cc\JJ	.	16aa\JJ	.	.	.	.	.	16a\JJ	.	16cc\JJ	.	.	.
=39	=39	=39	=39	=39	=39	=39	=39	=39	=39	=39	=39	=39	=39	=39	=39
8G\L	.	8b\L	.	4gg\	.	1r	.	1r	.	8g\	-ſon	4b\	-ſon	1ryy	1ryy
8G\	.	8b\	.	.	.	.	.	.	.	8g\	Chri-	.	.	.	.
8B\	.	8dd\	.	16gg\LL	.	.	.	.	.	16g\LL	-ſte	4r	.	.	.
.	.	.	.	16aa\	.	.	.	.	.	16a\JJ	.	.	.	.	.
8B\J	.	8dd\J	.	16gg\	.	.	.	.	.	16g\LL	e-	.	.	.	.
.	.	.	.	16ffn\JJ	.	.	.	.	.	16fn\JJ	.	.	.	.	.
8c\L	.	8g/L	.	16ff\LL	.	.	.	.	.	16f\LL	-lei-	2r	.	.	.
.	.	.	.	16ee\J	.	.	.	.	.	16e\JJ	.	.	.	.	.
16c\L	.	8g/	.	8ee\J	.	.	.	.	.	8e\	-ſon	.	.	.	.
16B\JJ	.	.	.	.	.	.	.	.	.	.	.	.	.	.	.
8c\	.	8g/J	.	8r	.	.	.	.	.	8r	.	.	.	.	.
8r	.	8r	.	16gg\LL	.	.	.	.	.	16g\LL	e-	.	.	.	.
.	.	.	.	16ee\JJ	.	.	.	.	.	16e\JJ	.	.	.	.	.
=40	=40	=40	=40	=40	=40	=40	=40	=40	=40	=40	=40	=40	=40	=40	=40
8r	.	8r	.	16ee\LL	.	1r	.	1r	.	16e\LL	-lei-	2r	.	1ryy	1ryy
.	.	.	.	16dd\J	.	.	.	.	.	16d\JJ	.	.	.	.	.
16B\LL	.	8g/L	.	8dd\J	.	.	.	.	.	8d\	-ſon	.	.	.	.
16A\JJ	.	.	.	.	.	.	.	.	.	.	.	.	.	.	.
8B\	.	8g/J	.	8r	.	.	.	.	.	8r	.	.	.	.	.
8r	.	8r	.	16gg\LL	.	.	.	.	.	16g\LL	Chri-	.	.	.	.
.	.	.	.	16ff#\JJ	.	.	.	.	.	16f#\JJ	.	.	.	.	.
8r	.	8r	.	16ff#\LL	.	.	.	.	.	8e\	-ſte	8r	.	.	.
.	.	.	.	16ee\	.	.	.	.	.	.	.	.	.	.	.
!LO:TX:a:t=P:problem=mixed beam	!	!	!	!	!	!	!	!	!	!	!	!	!	!	!
8c\L	.	8ee\	.	16aa\	.	.	.	.	.	16a\LL	e-	16cc\LL	e-	.	.
.	.	.	.	16ccc\JJ	.	.	.	.	.	16cc\JJ	.	16ee\JJ	.	.	.
8d\	.	16dd\LL	.	16bb\LL	.	.	.	.	.	16b\LL	-lei-	16dd\LL	-lei-	.	.
.	.	16cc\	.	16aa\	.	.	.	.	.	16a\	.	16cc\	.	.	.
8D\J	.	16b\	.	16gg\	.	.	.	.	.	16g\	.	16b\	.	.	.
.	.	16a\JJ	.	16ff#\JJ	.	.	.	.	.	16f#X\JJ	.	16a\JJ	.	.	.
=41	=41	=41	=41	=41	=41	=41	=41	=41	=41	=41	=41	=41	=41	=41	=41
!	!	!	!LO:DY:a	!	!LO:DY:a	!	!	!	!	!	!	!	!	!	!
8G\L	.	8b\L	f	8gg\L	f	1r	.	1r	.	4g\	-ſon	4b\	-ſon	1ryy	1ryy
8B\	.	16bb\L	.	16bb\L	.	.	.	.	.	.	.	.	.	.	.
.	.	16gg\JJ	.	16gg\JJ	.	.	.	.	.	.	.	.	.	.	.
8d\	.	16gg\LL	.	16gg\LL	.	.	.	.	.	4r	.	4r	.	.	.
.	.	16ff#\	.	16ff#\	.	.	.	.	.	.	.	.	.	.	.
8c\J	.	16ff#\	.	16ff#\	.	.	.	.	.	.	.	.	.	.	.
.	.	16aa\JJ	.	16aa\JJ	.	.	.	.	.	.	.	.	.	.	.
8B\L	.	16aa\LL	.	16aa\LL	.	.	.	.	.	2r	.	2r	.	.	.
.	.	16gg\	.	16gg\	.	.	.	.	.	.	.	.	.	.	.
8B\	.	16gg\	.	16gg\	.	.	.	.	.	.	.	.	.	.	.
.	.	16bb\JJ	.	16bb\JJ	.	.	.	.	.	.	.	.	.	.	.
8c\	.	16bb\LL	.	16bb\LL	.	.	.	.	.	.	.	.	.	.	.
.	.	16aa\	.	16aa\	.	.	.	.	.	.	.	.	.	.	.
8B\J	.	16aa\	.	16aa\	.	.	.	.	.	.	.	.	.	.	.
.	.	16gg#X\JJ	.	16gg#X\JJ	.	.	.	.	.	.	.	.	.	.	.
=42	=42	=42	=42	=42	=42	=42	=42	=42	=42	=42	=42	=42	=42	=42	=42
*	*	*Xtuplet	*	*	*	*	*	*	*	*	*	*	*	*	*
!LO:TX:a:t=P:problem=mixed beam	!	!	!	!	!	!	!	!	!	!	!	!	!	!	!
8c\L	.	8ee\L	.	24aa\LL	.	1r	.	1r	.	1r	.	1r	.	1ryy	1ryy
!	!	!	!	!LO:SIC:v:s=24gg#\	!	!	!	!	!	!	!	!	!	!	!
.	.	.	.	24gg\	.	.	.	.	.	.	.	.	.	.	.
.	.	.	.	24aa\JJ	.	.	.	.	.	.	.	.	.	.	.
!	!	!LO:TX:a:t=P:problem=triola bez numeru i łuku	!	!	!	!	!	!	!	!	!	!	!	!	!
8c\	.	24ee\L	.	24ccc\LL	.	.	.	.	.	.	.	.	.	.	.
.	.	24dd\	.	24bb\	.	.	.	.	.	.	.	.	.	.	.
.	.	24cc\JJ	.	24aa\JJ	.	.	.	.	.	.	.	.	.	.	.
8d\	.	8b/L	.	8ggn\L	.	.	.	.	.	.	.	.	.	.	.
8D\J	.	8a/J	.	8ff#\J	.	.	.	.	.	.	.	.	.	.	.
16G\LL	.	8b\L	.	8gg\L	.	.	.	.	.	.	.	.	.	.	.
16F#\	.	.	.	.	.	.	.	.	.	.	.	.	.	.	.
16G\	.	8b\	.	8gg 8b\	.	.	.	.	.	.	.	.	.	.	.
16A\JJ	.	.	.	.	.	.	.	.	.	.	.	.	.	.	.
16B\LL	.	8b\J	.	8ggJ 8b\	.	.	.	.	.	.	.	.	.	.	.
16A\	.	.	.	.	.	.	.	.	.	.	.	.	.	.	.
16G\	.	8r	.	8r	.	.	.	.	.	.	.	.	.	.	.
16F#\JJ	.	.	.	.	.	.	.	.	.	.	.	.	.	.	.
*	*	*tuplet	*	*	*	*	*	*	*	*	*	*	*	*	*
=43	=43	=43	=43	=43	=43	=43	=43	=43	=43	=43	=43	=43	=43	=43	=43
!LO:TX:a:t=tutti	!	!	!	!	!	!	!	!	!	!	!	!	!	!	!
8.E\L	.	8.g/L	.	8.ee\L	.	8.E\	Ky-	8.B\	Ky-	8.g\	Ky-	8.ee\	Ky-	1ryy	1ryy
16D#X\Jk	.	16a/Jk	.	16ff#\Jk	.	16D#X\	-ri-	16B\	-ri-	16a\	-ri-	16ff#\	-ri-	.	.
8E\L	.	24b/LL	.	24gg\LL	.	8E\	-e	8B\	-e	8g\	-e	8ee\	-e	.	.
.	.	24a/	.	24ff#\	.	.	.	.	.	.	.	.	.	.	.
.	.	24g/JJ	.	24ee\JJ	.	.	.	.	.	.	.	.	.	.	.
8E\J	.	16b/LL	.	16gg\LL	.	8E\	e-	8B\	e-	8g\	e-	8ee\	e-	.	.
.	.	16g/JJ	.	16ee\JJ	.	.	.	.	.	.	.	.	.	.	.
!LO:TX:a:t=P:problem=mixed beam	!	!	!	!	!	!	!	!	!	!	!	!	!	!	!
8B\L	.	8g/L	.	8ee\L	.	8B\	-lei-	8B\	-lei-	8g\	-lei-	8ee\	-lei-	.	.
8BB\J	.	8f#/J	.	8dd#X\J	.	8BB/	-ſon	8B\	-ſon	8f#\	-ſon	8dd#X\	-ſon	.	.
!LO:TX:b:t=Verte	!	!	!	!	!	!	!	!	!	!	!	!	!	!	!
4r	.	16dd#X\LL	.	16dd#\LL	.	4r	.	4r	.	4r	.	4r	.	.	.
.	.	16cc\	.	16cc\	.	.	.	.	.	.	.	.	.	.	.
.	.	16cc\	.	16cc\	.	.	.	.	.	.	.	.	.	.	.
.	.	16b\JJ	.	16b\JJ	.	.	.	.	.	.	.	.	.	.	.
=44	=44	=44	=44	=44	=44	=44	=44	=44	=44	=44	=44	=44	=44	=44	=44
8r	.	4b\	.	4b\	.	8r	.	8r	.	8r	.	8r	.	1ryy	1ryy
16E\LL	.	.	.	.	.	16E\LL	Chri-	8B\	Chri-	16g\LL	Chri-	16ee\LL	Chri-	.	.
16D#X\JJ	.	.	.	.	.	16D#X\JJ	.	.	.	16a\JJ	.	16ff#\JJ	.	.	.
8E\L	.	24g/LL	.	24ee\LL	.	8E\	-ſte	8B\	-ſte	8g\	-ſte	8ee\	-ſte	.	.
.	.	24b/	.	24dd#X\	.	.	.	.	.	.	.	.	.	.	.
.	.	24a/JJ	.	24cc\JJ	.	.	.	.	.	.	.	.	.	.	.
8E\J	.	24g/LL	.	24b/LL	.	8E\	e-	8B\	e-	8g\	e-	8ee\	e-	.	.
.	.	24f#/	.	24a/	.	.	.	.	.	.	.	.	.	.	.
.	.	24e/JJ	.	24g/JJ	.	.	.	.	.	.	.	.	.	.	.
!LO:TX:a:t=P:problem=mixed beam	!	!	!	!	!	!	!	!	!	!	!	!	!	!	!
8B\L	.	8e/L	.	8g/L	.	8B\	-lei-	8B\	-lei-	8g\	-lei-	8ee\	-lei-	.	.
8BB\J	.	8d#X/J	.	8f#/J	.	8BB/	-ſon	8B\	-ſon	8f#\	-ſon	8dd#X\	-ſon	.	.
4r	.	16dd#X\LL	.	16dd#X\LL	.	4r	.	4r	.	4r	.	4r	.	.	.
.	.	16cc\	.	16cc\	.	.	.	.	.	.	.	.	.	.	.
.	.	16cc\	.	16cc\	.	.	.	.	.	.	.	.	.	.	.
.	.	16b\JJ	.	16b\JJ	.	.	.	.	.	.	.	.	.	.	.
=45	=45	=45	=45	=45	=45	=45	=45	=45	=45	=45	=45	=45	=45	=45	=45
8r	.	4b\	.	4b\	.	8r	.	8r	.	8r	.	8r	.	1ryy	1ryy
*	*	*	*	*	*	*	*	*	*	*	*ij	*	*ij	*	*
16E\LL	.	.	.	.	.	16E\LL	Chri-	8B\	Chri-	16g\LL	Chri-	16ee\LL	Chri-	.	.
16D#X\JJ	.	.	.	.	.	16D#X\JJ	.	.	.	16a\JJ	.	16ff#\JJ	.	.	.
8E\L	.	24g/LL	.	24ee\LL	.	8E\	-ſte	8B\	-ſte	8g\	-ſte	8ee\	-ſte	.	.
.	.	24b/	.	24dd#X\	.	.	.	.	.	.	.	.	.	.	.
.	.	24a/JJ	.	24cc\JJ	.	.	.	.	.	.	.	.	.	.	.
8E\J	.	24g/LL	.	24b/LL	.	8E\	e-	8B\	e-	8g\	e-	8ee\	e-	.	.
.	.	24f#/	.	24a/	.	.	.	.	.	.	.	.	.	.	.
.	.	24e/JJ	.	24g/JJ	.	.	.	.	.	.	.	.	.	.	.
!LO:TX:a:t=P:problem=mixed beam	!	!	!	!	!	!	!	!	!	!	!	!	!	!	!
8B\L	.	8e/L	.	8g/L	.	8B\	-lei-	8B\	-lei-	8g\	-lei-	8ee\	-lei-	.	.
8BB\J	.	8d#X/J	.	8f#/J	.	8BB/	-ſon	8B\	-ſon	8f#\	-ſon	8dd#X\	-ſon	.	.
*	*	*	*	*	*	*	*	*	*	*	*Xij	*	*Xij	*	*
8r	.	16B/LL	.	16g/LL	.	8r	.	8r	.	8r	.	8r	.	.	.
.	.	16e/	.	16e/	.	.	.	.	.	.	.	.	.	.	.
*	*	*	*	*	*	*	*ij	*	*ij	*	*	*	*	*	*
8E\	.	16g/	.	16g/	.	8E\	{e-	8B\	{e-	8g\	e-	8ee\	e-	.	.
.	.	16b/JJ	.	16b/JJ	.	.	.	.	.	.	.	.	.	.	.
=46	=46	=46	=46	=46	=46	=46	=46	=46	=46	=46	=46	=46	=46	=46	=46
8D#X\L	.	16b/LL	.	16b/LL	.	8D#X\L	-lei-	4B\	-lei-	4a\	-lei-	4ff#\	-lei-	1ryy	1ryy
.	.	16a/	.	16a/	.	.	.	.	.	.	.	.	.	.	.
8F#\	.	16g/	.	16g/	.	8F#\J	.	.	.	.	.	.	.	.	.
.	.	16a/JJ	.	16a/JJ	.	.	.	.	.	.	.	.	.	.	.
8BB\	.	24ff#\LL	.	24ff#\LL	.	8BB/	-ſon	8B\	-ſon	8a\	-ſon	8ff#\	-ſon	.	.
.	.	24ee\	.	24ee\	.	.	.	.	.	.	.	.	.	.	.
.	.	24dd#X\JJ	.	24dd#X\JJ	.	.	.	.	.	.	.	.	.	.	.
8D#\J	.	24cc\LL	.	24cc\LL	.	8D#\	e-	8B\	e-	8a\	{e-	8ff#\	{e-	.	.
.	.	24b\	.	24b\	.	.	.	.	.	.	.	.	.	.	.
.	.	24a\JJ	.	24a\JJ	.	.	.	.	.	.	.	.	.	.	.
8E\L	.	16a/LL	.	16a/LL	.	4E\	-lei-	4B\	-lei-	4g\	-lei-	4ee\	-lei-	.	.
.	.	16g/J	.	16g/J	.	.	.	.	.	.	.	.	.	.	.
8E\	.	8g/J	.	8g/J	.	.	.	.	.	.	.	.	.	.	.
8G\	.	16g/LL	.	16g/LL	.	8G\	-ſon	8B\	-ſon	8g\	-ſon	8ee\	-ſon	.	.
.	.	16e/	.	16e/	.	.	.	.	.	.	.	.	.	.	.
8E\J	.	16g/	.	16g/	.	8E\	e-	8B\	e-	8g\	e-	8ee\	e-	.	.
.	.	16b/JJ	.	16b/JJ	.	.	.	.	.	.	.	.	.	.	.
=47	=47	=47	=47	=47	=47	=47	=47	=47	=47	=47	=47	=47	=47	=47	=47
8D#X\L	.	16b/LL	.	16b/LL	.	8D#X\L	-lei-	4B\	-lei-	4a\	-lei-	4ff#\	-lei-	1ryy	1ryy
.	.	16a/	.	16a/	.	.	.	.	.	.	.	.	.	.	.
8F#\	.	16g/	.	16g/	.	8F#\J	.	.	.	.	.	.	.	.	.
.	.	16a/JJ	.	16a/JJ	.	.	.	.	.	.	.	.	.	.	.
8BB\	.	24ff#\LL	.	24ff#\LL	.	8BB/	-ſon}	8B\	-ſon	8a\	-ſon	8ff#\	-ſon	.	.
.	.	24ee\	.	24ee\	.	.	.	.	.	.	.	.	.	.	.
.	.	24dd#X\JJ	.	24dd#X\JJ	.	.	.	.	.	.	.	.	.	.	.
*	*	*	*	*	*	*	*Xij	*	*	*	*	*	*	*	*
8D#\J	.	24cc\LL	.	24cc\LL	.	8D#\	e-	8B\	e-	8a\	e-	8ff#\	e-	.	.
.	.	24b\	.	24b\	.	.	.	.	.	.	.	.	.	.	.
.	.	24a\JJ	.	24a\JJ	.	.	.	.	.	.	.	.	.	.	.
8E\L	.	16a/LL	.	16a/LL	.	4E\	-lei-	4B\	-lei-	4g\	-lei-	4ee\	-lei-	.	.
.	.	16g/J	.	16g/J	.	.	.	.	.	.	.	.	.	.	.
8E\	.	8g/J	.	8g/J	.	.	.	.	.	.	.	.	.	.	.
8G\	.	8e/L	.	24g/LL	.	8G\	-ſon	8B\	-ſon	8g\	-ſon	8ee\	-ſon	.	.
.	.	.	.	24f#/	.	.	.	.	.	.	.	.	.	.	.
.	.	.	.	24g/JJ	.	.	.	.	.	.	.	.	.	.	.
*	*	*	*	*	*	*	*	*	*Xij	*	*	*	*	*	*
8E\J	.	24g/L	.	24b/LL	.	8E\	{e-	8B\	e-	8g\	e-	8ee\	e-	.	.
.	.	24f#/	.	24a/	.	.	.	.	.	.	.	.	.	.	.
.	.	24e/JJ	.	24g/JJ	.	.	.	.	.	.	.	.	.	.	.
=48	=48	=48	=48	=48	=48	=48	=48	=48	=48	=48	=48	=48	=48	=48	=48
!LO:TX:a:t=P:problem=mixed beam	!	!	!	!	!	!	!	!	!	!	!	!	!	!	!
8B\L	.	8e/L	.	8g/L	.	8B\	-lei-	8B\	-lei-	8g\	-lei-	8ee\	-lei-	1ryy	1ryy
8BB\J	.	8d#X/J	.	8f#/J	.	8BB/	-ſon	8B\	-ſon	8f#\	-ſon}	8dd#X\	-ſon	.	.
8r	.	24dd#X\LL	.	24ff#\LL	.	8r	.	8r	.	8r	.	8r	.	.	.
.	.	24cc\	.	24ee\	.	.	.	.	.	.	.	.	.	.	.
!	!	!	!	!LO:SIC:v:s=24dd#\JJ	!	!	!	!	!	!	!	!	!	!	!
.	.	24b\JJ	.	24dd\JJ	.	.	.	.	.	.	.	.	.	.	.
*	*	*	*	*	*	*	*	*	*ij	*	*	*	*	*	*
8D#X\	.	24a/LL	.	24cc\LL	.	8D#X\	e-	8B\	e-	8a\	e-	8ff#\	e-	.	.
.	.	24g/	.	24b\	.	.	.	.	.	.	.	.	.	.	.
.	.	24f#/JJ	.	24a\JJ	.	.	.	.	.	.	.	.	.	.	.
!LO:TX:a:t=P:problem=mixed beam	!	!	!	!	!	!	!	!	!	!	!	!	!	!	!
8E\L	.	8f#/L	.	8a/L	.	8E\	-lei-	8B\	-lei-	8a\	-lei-	8ff#\	-lei-	.	.
8EE\J	.	8e/J	.	8g/J	.	8E\	-ſon	8B\	-ſon	8g\	-ſon	8ee\	-ſon	.	.
8r	.	24g/LL	.	24ee\LL	.	8r	.	8r	.	8r	.	8r	.	.	.
.	.	24b/	.	24dd#X\	.	.	.	.	.	.	.	.	.	.	.
.	.	24a/JJ	.	24cc\JJ	.	.	.	.	.	.	.	.	.	.	.
8E\	.	24g/LL	.	24b/LL	.	8E\	e-	8B\	e-	8g\	{e-	8ee\	e-	.	.
.	.	24f#/	.	24a/	.	.	.	.	.	.	.	.	.	.	.
.	.	24e/JJ	.	24g/JJ	.	.	.	.	.	.	.	.	.	.	.
=49	=49	=49	=49	=49	=49	=49	=49	=49	=49	=49	=49	=49	=49	=49	=49
!LO:TX:a:t=P:problem=mixed beam	!	!	!	!	!	!	!	!	!	!	!	!	!	!	!
8B\L	.	8e/L	.	8g/L	.	8B\	-lei-	8B\	-lei-	8g\	-lei-	8ee\	-lei-	1ryy	1ryy
8BB\J	.	8d#X/J	.	8f#/J	.	8BB/	-ſon}	8B\	-ſon	8f#\	-ſon}	8dd#X\	-ſon}	.	.
8r	.	16e/LL	.	16e/LL	.	8r	.	8r	.	8r	.	8r	.	.	.
.	.	16g/JJ	.	16g/JJ	.	.	.	.	.	.	.	.	.	.	.
8G\	.	16b\LL	.	16b\LL	.	8G\	e-	8B\	e-	8g\	e-	8ee\	e-	.	.
.	.	16ee\JJ	.	16ee\JJ	.	.	.	.	.	.	.	.	.	.	.
!LO:TX:a:t=P:problem=mixed beam	!	!	!	!	!	!	!	!	!	!	!	!	!	!	!
8A\L	.	8cc\L	.	8cc\L	.	4A\	-lei-	(4c\	-lei-	4a\	-lei-	4ff#\	-lei-	.	.
8A\	.	16cc\L	.	16aa\L	.	.	.	.	.	.	.	.	.	.	.
.	.	16a\JJ	.	16ff#\JJ	.	.	.	.	.	.	.	.	.	.	.
8B\	.	8g/L	.	8ee\L	.	4B\	.	4B\)	.	8g\L	.	8ee\L	.	.	.
8BB\J	.	8f#/J	.	8dd#X\J	.	.	.	.	.	8f#\J	.	8dd#\J	.	.	.
=50	=50	=50	=50	=50	=50	=50	=50	=50	=50	=50	=50	=50	=50	=50	=50
8E\L	.	(8.g/L	.	(8.ee\L	.	4E\	-ſon	4B\	-ſon	4g\	-ſon	4ee\	-ſon	1ryy	1ryy
8E\	.	.	.	.	.	.	.	.	.	.	.	.	.	.	.
.	.	32f#/LL	.	32dd#X\LL	.	.	.	.	.	.	.	.	.	.	.
.	.	32g/JJJ)	.	32ee\JJJ)	.	.	.	.	.	.	.	.	.	.	.
*	*	*	*	*	*	*	*	*	*Xij	*	*	*	*	*	*
!	!	!LO:TX:a:t=P:global:problem=niejednoznaczny zapis artykulacji [przyjęto staccatissimo]	!	!LO:TX:a:t=P:global:problem=niejednoznaczny zapis artykulacji [przyjęto staccatissimo]	!	!	!	!	!	!	!	!	!	!	!
8E\	.	16f#`/LL	.	16dd#`\LL	.	4E\	e-	4e\	e-	4f#\	e-	4dd#X\	e-	.	.
.	.	16f#`/	.	16dd#`\	.	.	.	.	.	.	.	.	.	.	.
8E\J	.	16f#`/	.	16dd#`\	.	.	.	.	.	.	.	.	.	.	.
.	.	16f#`/JJ	.	16dd#`\JJ	.	.	.	.	.	.	.	.	.	.	.
8E\L	.	(8.b/L	.	(8.ddn\L	.	2E\	-lei-	2e\	-lei-	4b\	-lei-	4ddn\	-lei-	.	.
8E\	.	.	.	.	.	.	.	.	.	.	.	.	.	.	.
.	.	32a/LL	.	32cc\LL	.	.	.	.	.	.	.	.	.	.	.
.	.	32b/JJJ)	.	32dd\JJJ)	.	.	.	.	.	.	.	.	.	.	.
8E\	.	16a`/LL	.	16ccn`\LL	.	.	.	.	.	4a\	.	4cc\	.	.	.
.	.	16a`/	.	16cc`\	.	.	.	.	.	.	.	.	.	.	.
8E\J	.	16a`/	.	16cc`\	.	.	.	.	.	.	.	.	.	.	.
.	.	16a`/JJ	.	16cc`\JJ	.	.	.	.	.	.	.	.	.	.	.
=51	=51	=51	=51	=51	=51	=51	=51	=51	=51	=51	=51	=51	=51	=51	=51
8E\L	.	(8.f#/L	.	(8.dd#X\L	.	2E\	.	2e\	.	2f#\	.	2dd#X\	.	1ryy	1ryy
8E\	.	.	.	.	.	.	.	.	.	.	.	.	.	.	.
.	.	32e/LL	.	32cc\LL	.	.	.	.	.	.	.	.	.	.	.
.	.	32f#/JJJ)	.	32dd#\JJJ)	.	.	.	.	.	.	.	.	.	.	.
8E\	.	16f#`/LL	.	16dd#`\LL	.	.	.	.	.	.	.	.	.	.	.
.	.	16f#`/	.	16dd#`\	.	.	.	.	.	.	.	.	.	.	.
8E\J	.	16f#`/	.	16dd#`\	.	.	.	.	.	.	.	.	.	.	.
.	.	16f#`/JJ	.	16dd#`\JJ	.	.	.	.	.	.	.	.	.	.	.
!LO:TX:a:t=P:problem=mixed beam	!	!	!	!	!	!	!	!	!	!	!	!	!	!	!
8E\L	.	8g/L	.	16ee\LL	.	8E\	-ſon	8e\	-ſon	8g\	-ſon	8ee\	-ſon	.	.
.	.	.	.	16b\	.	.	.	.	.	.	.	.	.	.	.
*	*	*	*	*	*	*	*ij	*	*ij	*	*	*	*	*	*
8A\	.	16a/L	.	16cc\	.	8A\	e-	8c\	e-	8a\	e-	8ff#\	e-	.	.
.	.	16f#/JJ	.	16a\JJ	.	.	.	.	.	.	.	.	.	.	.
!	!	!	!	!	!	!LO:TX:a:t=P:problem=mixed beam	!	!	!	!	!	!	!	!	!
8B\	.	8e/L	.	8g/L	.	8B\L	-lei-	4B\	-lei-	8g\L	-lei-	8ee\L	-lei-	.	.
8BB\J	.	8d#X/J	.	8f#/J	.	8BB\J	.	.	.	8f#\J	.	8dd#\J	.	.	.
=52	=52	=52	=52	=52	=52	=52	=52	=52	=52	=52	=52	=52	=52	=52	=52
8E\L	.	16e/LL	.	16g\LL	.	8E\	-ſon	8B\	-ſon	8g\	-ſon	8ee\	-ſon	1ryy	1ryy
.	.	16g/	.	16ee\	.	.	.	.	.	.	.	.	.	.	.
*	*	*	*	*	*	*	*	*	*	*	*ij	*	*ij	*	*
8c\	.	16g/	.	16ee\	.	8c\	e-	8c\	e-	8g\	e-	8ee\	e-	.	.
.	.	16g/JJ	.	16ee\JJ	.	.	.	.	.	.	.	.	.	.	.
8A\	.	16f#/LL	.	16ee\LL	.	8A\L	-lei-	8c\L	-lei-	4f#\	-lei-	8ee\L	-lei-	.	.
.	.	16f#/	.	16ee\	.	.	.	.	.	.	.	.	.	.	.
8B\J	.	16f#/	.	16dd#X\	.	8B\J	.	8B\J	.	.	.	8dd#X\J	.	.	.
.	.	16f#/JJ	.	16dd#\JJ	.	.	.	.	.	.	.	.	.	.	.
4E\	.	4g/	.	4ee\	.	4E\	-ſon	4B\	-ſon	4g\	-ſon	4ee\	-ſon	.	.
*	*	*	*	*	*	*	*Xij	*	*Xij	*	*Xij	*	*Xij	*	*
!	!	!	!	!	!	!LO:TX:b:t=Volti gloria	!	!LO:TX:b:t=Volti gloria	!	!	!	!	!	!	!
4r	.	4r	.	4r	.	4r	.	4r	.	4r	.	4r	.	.	.
==	==	==	==	==	==	==	==	==	==	==	==	==	==	==	==
*-	*-	*-	*-	*-	*-	*-	*-	*-	*-	*-	*-	*-	*-	*-	*-
!!title: @{OTL};
!!!RDF**kern: > = above
!!!RDF**kern: < = below
!!!RDF**dynam: > = "dim", fontstyle= "bold-italic"
!!!RDF**dynam: < = "cresc", fontstyle= "bold-italic"
!!!RDF**kern: | = vertical stroke
!!!RDF**kern: N = linked
!!!RDF**kern: i = editorial accidental
!!!RDF**kern: l = terminal long
!!!AIN: 1 alto 3 empty 1 organ 1 tenor 2 violn 1 vox
!!!ENC: Andrzej Kubiczek
!!!END: 2020-07-06
!!!EED: Wojciech Jakubiak-Danek
!!!EST: 2021-12-29
!!!URL-scan: http://repozytorium.nifc.pl/skany/pl-cz-nut--iii-106
!!!ONB-nifc: UWAGA: części Mszy: Kyrie, Gloria, Patrem, Et resurrexit, Sanctus, Benedictus, Osanna, Agnus Dei, Dona nobis
